<?xml version="1.0" encoding="UTF-8"?>
<map version="1.10" tiledversion="1.12.1" orientation="orthogonal" renderorder="right-down" width="20" height="60" tilewidth="16" tileheight="16" infinite="0" nextlayerid="8" nextobjectid="1">
 <tileset firstgid="1" source="CastlevaniaTileset.tsx"/>
 <layer id="6" name="BackGround" width="20" height="60">
  <data encoding="csv">
0,0,0,0,0,0,0,0,0,0,0,0,0,0,0,0,0,0,0,0,
0,0,0,0,0,0,0,0,0,0,0,0,0,0,0,0,0,0,0,0,
0,0,0,0,0,0,0,0,0,0,0,0,0,0,0,0,0,0,0,0,
0,0,0,0,0,0,0,0,0,0,0,0,0,0,0,0,0,0,0,0,
0,0,0,0,0,0,0,0,0,0,0,0,0,0,0,0,0,0,0,0,
0,0,0,0,0,0,0,0,0,0,0,0,0,0,0,0,0,0,0,0,
0,0,0,0,0,0,0,0,0,0,0,0,0,0,0,0,0,0,0,0,
0,0,0,0,0,0,0,0,0,0,0,0,0,0,0,0,0,0,0,0,
0,0,0,0,0,0,0,0,0,0,0,0,0,0,0,0,0,0,0,0,
0,0,0,0,0,0,0,0,0,0,0,0,0,0,0,0,0,0,0,0,
0,0,0,0,0,0,0,0,0,0,0,0,0,0,0,0,0,0,0,0,
0,0,0,0,0,0,0,0,0,0,0,0,0,0,0,0,0,0,0,0,
0,0,0,0,0,0,0,0,0,0,0,0,0,0,0,0,0,0,0,0,
0,0,0,0,0,0,0,0,0,0,0,0,0,0,0,0,0,0,0,0,
0,470,469,470,0,500,501,0,469,470,469,0,502,502,0,470,469,470,469,0,
0,469,470,469,0,501,502,0,470,469,470,0,502,502,502,469,470,469,470,0,
0,470,469,470,0,500,501,0,469,470,469,0,502,501,502,470,469,470,469,0,
0,469,470,469,0,501,502,0,470,469,470,0,501,500,502,469,470,469,470,0,
0,470,469,470,0,500,501,0,500,470,502,0,502,502,501,470,469,470,469,0,
0,469,470,469,0,501,502,0,469,470,469,0,502,501,501,469,470,469,470,0,
0,470,469,470,0,502,500,0,470,469,470,0,501,501,501,470,469,470,469,0,
0,469,470,469,0,502,502,0,500,470,502,0,501,501,501,469,470,469,470,0,
0,470,469,470,0,502,501,0,470,469,470,0,501,500,502,470,469,470,469,0,
0,469,470,469,0,500,501,0,469,470,469,0,500,502,502,469,470,469,470,0,
0,454,453,454,453,500,502,614,470,469,470,454,501,501,501,470,469,470,469,0,
232,453,454,453,454,501,502,0,469,500,469,0,501,501,502,469,470,469,470,0,
264,454,453,454,453,502,502,0,502,469,470,0,501,502,502,470,469,470,469,0,
296,453,454,453,454,501,502,0,469,470,502,0,502,502,501,469,470,469,470,0,
0,0,0,486,0,0,0,0,0,0,0,0,0,0,0,0,0,0,0,0,
0,675,676,518,486,517,517,517,707,517,707,707,675,675,675,676,675,675,676,0,
0,675,676,675,518,486,517,517,517,517,517,517,707,707,675,675,675,675,708,0,
0,675,676,707,517,518,486,517,517,517,517,517,517,517,707,707,675,676,517,0,
0,675,676,517,517,517,518,517,0,517,517,517,517,486,487,517,707,708,517,0,
0,707,708,517,517,517,517,517,517,517,517,517,453,454,519,487,517,517,453,0,
0,517,517,453,454,517,517,517,517,453,454,517,517,453,454,519,517,453,454,0,
0,517,517,517,453,454,517,517,453,454,453,454,453,454,453,0,453,454,517,0,
0,453,454,453,454,453,454,453,454,453,454,453,454,517,517,517,517,453,454,0,
0,517,453,454,517,517,453,454,517,517,517,517,517,517,517,517,0,0,0,0,
0,453,454,517,517,517,517,453,454,517,517,517,517,517,0,0,0,643,643,0,
0,517,517,517,517,517,517,449,450,515,516,420,517,0,0,676,675,614,615,0,
0,517,517,517,517,517,517,481,482,547,548,516,0,0,615,609,676,676,675,0,
0,0,486,487,0,0,0,0,0,0,0,0,615,643,614,615,609,609,676,0,
0,517,518,519,487,418,482,482,393,394,0,0,614,615,643,676,609,614,615,0,
0,517,517,518,519,487,418,482,425,426,517,0,643,676,615,643,676,675,609,0,
0,517,517,517,518,519,487,418,385,386,451,451,452,675,614,615,609,676,609,0,
0,517,517,517,517,518,519,487,385,386,451,452,484,676,609,643,609,615,643,0,
0,517,517,517,517,517,518,519,385,386,483,484,484,615,676,676,643,615,676,0,
0,517,517,517,517,0,0,0,385,386,517,517,0,0,0,676,643,644,643,0,
0,517,517,517,517,517,453,454,385,386,517,517,675,676,0,0,643,644,615,0,
0,0,0,486,487,453,454,453,393,394,454,517,707,708,707,708,675,676,0,0,
0,517,453,454,519,517,517,517,425,426,453,454,453,454,517,517,675,676,517,0,
0,453,454,517,0,0,517,517,0,0,517,453,454,517,517,517,707,708,517,0,
0,517,517,517,393,394,453,454,393,394,517,517,518,519,487,517,517,517,517,0,
0,517,517,517,425,426,517,453,425,426,454,517,517,518,519,487,517,517,517,0,
232,517,517,517,385,386,517,517,385,386,453,454,453,454,453,519,487,517,517,0,
264,517,517,517,393,394,517,517,393,394,517,453,454,517,517,518,519,487,517,0,
296,517,449,450,425,426,515,516,425,426,449,450,515,516,420,517,518,519,517,0,
0,0,481,482,0,0,547,548,0,0,481,482,547,548,516,517,0,0,0,0,
0,675,140,139,675,676,140,139,675,676,140,139,675,676,140,139,675,676,675,676,
0,675,172,171,675,676,172,171,675,676,172,171,675,676,172,171,675,676,675,676
</data>
 </layer>
 <layer id="5" name="ForeGround" width="20" height="60">
  <data encoding="csv">
0,0,0,0,0,0,0,0,0,0,0,0,0,0,0,0,0,0,0,0,
0,0,0,0,0,0,0,0,0,0,0,0,0,0,0,0,0,0,0,0,
0,0,0,0,0,0,0,0,0,0,0,0,0,0,0,0,0,0,0,0,
0,0,0,0,0,0,0,0,0,0,0,0,0,0,0,0,0,0,0,0,
0,0,0,0,0,0,0,0,0,0,0,0,0,0,0,0,0,0,0,0,
0,0,0,0,0,0,0,0,0,0,0,0,0,0,0,0,0,0,0,0,
0,0,0,0,0,0,0,0,0,0,0,0,0,0,0,0,0,0,0,0,
0,0,0,0,0,0,0,0,0,0,0,0,0,0,0,0,0,0,0,0,
0,0,0,0,0,0,0,0,0,0,0,0,0,0,0,0,0,0,0,0,
0,0,0,0,0,0,0,0,0,0,0,0,0,0,0,0,0,0,0,0,
0,0,0,0,0,0,0,0,0,0,0,0,0,0,0,0,0,0,0,0,
0,0,0,0,0,0,0,0,0,0,0,0,0,0,0,0,0,0,0,0,
0,0,0,0,0,0,0,0,0,0,0,0,0,0,0,0,0,0,0,0,
0,0,0,0,0,0,0,0,0,0,0,0,0,0,0,0,0,0,0,0,
578,0,0,0,578,0,0,578,0,0,0,578,0,0,578,0,0,0,0,578,
578,0,0,0,578,0,0,578,0,0,0,578,0,0,578,0,0,0,0,578,
578,0,0,0,578,0,0,578,0,0,0,578,0,0,578,0,0,0,0,578,
578,0,0,0,578,0,0,578,0,0,0,578,0,0,578,0,0,0,0,578,
578,0,0,0,578,0,0,578,0,0,0,578,0,0,578,0,0,0,0,578,
578,0,0,0,578,0,0,578,0,0,0,578,0,0,578,0,0,0,0,578,
578,0,0,0,578,0,0,578,0,0,0,578,0,0,578,0,0,0,0,578,
578,0,0,0,578,0,0,578,0,0,0,578,0,0,578,0,0,0,0,578,
578,0,0,0,578,0,0,578,0,0,0,578,0,0,578,0,0,0,0,578,
578,0,0,0,578,0,0,578,0,0,0,578,0,0,578,0,0,0,0,578,
578,578,578,578,578,0,0,578,0,0,0,578,0,0,578,0,0,0,0,578,
0,0,0,0,578,0,0,578,0,0,0,578,0,0,578,0,0,0,0,578,
0,0,0,0,578,0,0,578,0,0,0,578,0,0,578,0,0,0,0,578,
0,0,0,0,578,0,0,578,0,0,0,578,0,0,578,0,0,0,0,578,
578,578,577,0,577,578,578,578,577,578,577,578,577,578,577,578,577,577,578,578,
578,0,0,0,0,0,0,0,0,0,0,0,0,0,0,0,0,0,0,578,
578,0,0,0,0,0,0,0,0,0,0,0,0,0,0,0,0,0,0,578,
578,0,0,0,0,0,0,0,0,0,0,0,0,0,0,0,0,0,0,578,
578,0,0,0,0,0,578,0,578,0,578,0,578,0,0,0,0,0,0,578,
578,0,0,0,0,0,0,0,0,0,0,0,0,0,0,0,0,0,0,578,
578,0,0,0,0,0,0,0,0,0,0,0,0,0,0,0,0,0,0,578,
578,0,0,0,0,0,0,0,0,0,0,0,0,0,0,577,0,0,0,578,
578,0,0,0,0,0,0,0,0,0,0,0,0,0,0,0,0,0,0,578,
578,0,0,0,0,0,0,0,0,0,0,0,577,0,0,0,578,578,578,578,
578,0,0,0,0,0,0,0,0,577,0,0,0,0,578,578,578,0,0,578,
578,0,0,0,0,0,577,0,0,0,0,0,0,578,578,0,0,0,0,578,
578,0,0,0,0,0,0,0,0,0,0,578,578,578,0,0,0,0,0,578,
578,578,0,0,578,578,578,578,578,578,578,578,0,0,0,0,0,0,0,578,
578,0,0,0,0,0,0,0,0,0,577,578,0,0,0,0,0,0,0,578,
578,0,0,0,0,0,0,0,0,0,0,578,0,0,0,0,0,0,0,578,
578,0,0,0,0,0,0,0,0,0,0,578,578,0,0,0,0,0,0,578,
578,0,0,0,0,0,0,0,0,0,0,0,578,0,0,0,0,0,0,578,
578,0,0,0,0,0,0,0,0,0,0,0,578,0,0,0,0,0,0,578,
578,0,0,0,0,577,578,577,577,0,0,0,578,578,578,0,0,0,0,578,
578,0,0,0,0,0,0,0,0,0,0,0,0,0,578,578,578,0,0,578,
578,578,578,0,0,0,0,0,0,0,0,0,0,0,0,0,578,578,578,578,
578,0,0,0,0,0,0,0,0,0,0,0,0,0,0,0,0,0,0,578,
578,0,0,0,578,578,0,0,578,578,0,0,0,0,0,0,0,0,0,578,
578,0,0,0,0,0,0,0,0,0,0,0,578,0,0,0,0,0,0,578,
578,0,0,0,0,0,0,0,0,0,0,0,0,0,0,0,0,0,0,578,
0,0,0,0,0,0,0,0,0,0,0,0,0,0,0,0,0,0,0,578,
0,0,0,0,0,0,0,0,0,0,0,0,0,0,0,0,0,0,0,578,
0,0,0,0,0,0,0,0,0,0,0,0,0,0,0,0,0,0,0,578,
577,578,0,0,577,578,0,0,577,578,0,0,577,578,0,0,577,577,577,578,
577,0,0,0,0,0,0,0,0,0,0,0,0,0,0,0,0,0,0,0,
577,0,0,0,0,0,0,0,0,0,0,0,0,0,0,0,0,0,0,0
</data>
 </layer>
 <layer id="4" name="Breakables" width="20" height="60">
  <data encoding="csv">
0,0,0,0,0,0,0,0,0,0,0,0,0,0,0,0,0,0,0,0,
0,0,0,0,0,0,0,0,0,0,0,0,0,0,0,0,0,0,0,0,
0,0,0,0,0,0,0,0,0,0,0,0,0,0,0,0,0,0,0,0,
0,0,0,0,0,0,0,0,0,0,0,0,0,0,0,0,0,0,0,0,
0,0,0,0,0,0,0,0,0,0,0,0,0,0,0,0,0,0,0,0,
0,0,0,0,0,0,0,0,0,0,0,0,0,0,0,0,0,0,0,0,
0,0,0,0,0,0,0,0,0,0,0,0,0,0,0,0,0,0,0,0,
0,0,0,0,0,0,0,0,0,0,0,0,0,0,0,0,0,0,0,0,
0,0,0,0,0,0,0,0,0,0,0,0,0,0,0,0,0,0,0,0,
0,0,0,0,0,0,0,0,0,0,0,0,0,0,0,0,0,0,0,0,
0,0,0,0,0,0,0,0,0,0,0,0,0,0,0,0,0,0,0,0,
0,0,0,0,0,0,0,0,0,0,0,0,0,0,0,0,0,0,0,0,
0,0,0,0,0,0,0,0,0,0,0,0,0,0,0,0,0,0,0,0,
0,0,0,0,0,0,0,0,0,0,0,0,0,0,0,0,0,0,0,0,
0,0,0,0,0,0,0,0,0,0,0,0,0,0,0,0,0,0,0,0,
0,0,0,0,0,0,0,0,0,0,0,0,0,0,0,0,0,0,0,0,
0,0,0,0,0,0,0,0,0,0,0,0,0,0,0,0,0,0,0,0,
0,0,0,0,0,0,0,0,0,0,0,0,0,0,0,0,0,0,0,0,
0,0,0,0,0,0,0,0,0,0,0,0,0,0,0,0,0,0,0,0,
0,0,0,0,0,0,0,0,0,0,0,0,0,0,0,0,0,0,0,0,
0,0,0,0,0,0,0,0,0,0,0,0,0,0,0,0,0,0,0,0,
0,0,0,0,0,0,0,0,0,0,0,0,0,0,0,0,0,0,0,0,
0,0,0,0,0,0,0,0,0,0,0,0,0,0,0,0,0,0,0,0,
0,0,0,0,0,0,0,0,0,0,0,0,0,0,0,0,0,0,0,0,
0,0,0,0,0,0,0,0,0,0,0,0,0,0,0,0,0,0,0,0,
0,0,0,0,0,0,0,0,0,0,0,0,0,0,0,0,0,0,0,0,
0,0,0,0,0,0,0,0,0,0,0,0,0,0,0,0,0,0,0,0,
0,0,0,0,0,0,0,0,0,0,0,0,0,0,0,0,0,0,0,0,
0,0,0,0,0,0,0,0,0,0,0,0,0,0,0,0,0,0,0,0,
0,0,0,0,0,0,0,0,0,0,0,0,0,0,0,0,0,0,0,0,
0,0,0,0,0,0,0,0,965,0,0,0,0,0,0,0,0,0,0,0,
0,0,0,0,0,0,0,0,0,0,0,0,0,0,0,0,0,0,0,0,
0,0,0,0,0,0,0,0,0,0,0,0,0,0,0,0,0,0,0,0,
0,0,0,0,0,0,0,0,0,0,0,0,0,0,0,0,0,0,0,0,
0,0,0,0,0,0,0,0,0,0,0,0,0,0,0,0,0,0,0,0,
0,0,0,0,0,0,0,0,0,0,0,0,965,0,0,0,0,965,0,0,
0,0,0,0,0,0,0,0,0,965,0,0,0,0,0,0,0,0,0,0,
0,0,0,0,0,0,965,0,0,0,0,0,0,0,0,0,0,0,0,0,
0,0,0,0,0,0,0,0,0,0,0,0,0,0,0,0,0,0,0,0,
0,0,0,0,0,0,0,0,0,0,0,0,0,0,0,0,0,0,0,0,
0,0,0,0,0,0,0,0,0,0,0,0,0,0,0,0,0,0,0,0,
0,0,0,0,0,0,0,0,0,0,0,0,0,0,0,0,0,0,0,0,
0,0,0,0,0,0,0,0,0,0,0,0,0,0,0,0,0,0,0,0,
0,0,0,0,0,0,0,0,0,0,0,0,0,0,0,0,0,0,0,0,
0,0,0,0,0,0,0,0,0,0,0,0,0,0,0,0,0,0,0,0,
0,0,0,0,0,0,0,0,0,0,0,0,0,0,0,0,0,0,0,0,
0,0,965,0,0,0,0,0,0,0,0,0,0,0,0,0,0,0,0,0,
0,0,0,0,0,0,0,0,0,0,0,0,0,0,0,0,0,0,0,0,
0,0,0,0,0,0,0,0,0,965,0,0,0,0,0,0,0,0,0,0,
0,0,0,0,0,0,0,0,0,0,0,0,0,0,0,0,0,0,0,0,
0,0,0,0,0,0,0,0,0,0,0,0,0,0,0,0,0,0,0,0,
0,0,0,0,0,0,0,0,0,0,0,0,0,0,0,0,0,0,0,0,
0,0,0,0,0,0,0,0,0,0,0,0,0,0,0,0,0,0,0,0,
0,0,0,0,0,0,0,0,0,0,0,0,0,0,0,0,0,0,0,0,
0,0,0,0,0,965,0,0,0,965,0,0,0,965,0,0,0,0,0,0,
0,0,0,0,0,0,0,0,0,0,0,0,0,0,0,0,0,0,0,0,
0,0,0,0,0,0,0,0,0,0,0,0,0,0,0,0,0,0,0,0,
0,0,0,0,0,0,0,0,0,0,0,0,0,0,0,0,0,0,0,0,
0,0,0,0,0,0,0,0,0,0,0,0,0,0,0,0,0,0,0,0,
0,0,0,0,0,0,0,0,0,0,0,0,0,0,0,0,0,0,0,0
</data>
 </layer>
 <layer id="7" name="Level" width="20" height="60">
  <data encoding="csv">
0,0,0,0,0,0,0,0,0,0,0,0,0,0,0,0,0,0,0,0,
0,0,0,0,0,0,0,0,0,0,0,0,0,0,0,0,0,0,0,0,
0,0,0,0,0,0,0,0,0,0,0,0,0,0,0,0,0,0,0,0,
0,0,0,0,0,0,0,0,0,0,0,0,0,0,0,0,0,0,0,0,
0,0,0,0,0,0,0,0,0,0,0,0,0,0,0,0,0,0,0,0,
0,0,0,0,0,0,0,0,0,0,0,0,0,0,0,0,0,0,0,0,
0,0,0,0,0,0,0,0,0,0,0,0,0,0,0,0,0,0,0,0,
0,0,0,0,0,0,0,0,0,0,0,0,0,0,0,0,0,0,0,0,
0,0,0,0,0,0,0,0,0,0,0,0,0,0,0,0,0,0,0,0,
0,0,0,0,0,0,0,0,0,0,0,0,0,0,0,0,0,0,0,0,
0,0,0,0,0,0,0,0,0,0,0,0,0,0,0,0,0,0,0,0,
0,0,0,0,0,0,0,0,0,0,0,0,0,0,0,0,0,0,0,0,
0,0,0,0,0,0,0,0,0,0,0,0,0,0,0,0,0,0,0,0,
0,0,0,0,0,0,0,0,0,0,0,0,0,0,0,0,0,0,0,0,
0,0,0,0,0,0,0,0,0,0,0,0,0,0,0,0,0,0,0,0,
0,0,0,0,0,0,0,0,0,0,0,0,0,0,0,0,0,0,0,0,
0,0,0,0,0,0,0,0,0,0,0,0,0,0,0,0,0,0,0,0,
0,0,0,0,0,0,0,0,0,0,0,0,0,0,0,0,0,0,0,0,
0,0,0,0,0,0,0,0,0,0,0,0,0,0,0,0,0,0,0,0,
0,0,0,0,0,0,0,0,0,0,0,0,0,0,0,0,0,0,0,0,
0,0,0,0,0,0,0,0,0,0,0,0,0,0,0,0,0,0,0,0,
0,0,0,0,0,0,0,0,0,0,0,0,0,0,0,0,0,0,0,0,
0,0,0,0,0,0,0,0,0,0,0,0,0,0,0,0,0,0,0,0,
0,0,0,0,0,0,0,0,0,0,0,0,0,0,0,0,0,0,0,0,
0,0,0,0,0,0,0,0,0,0,0,0,0,0,0,0,0,0,0,0,
898,0,0,0,0,0,0,0,0,0,0,0,0,0,0,0,0,0,0,0,
898,0,0,0,0,0,0,0,0,0,0,0,0,0,0,0,0,0,0,0,
898,930,961,0,0,0,0,0,0,0,0,0,0,0,0,0,0,0,0,0,
0,0,0,0,0,0,0,0,0,0,0,0,0,0,0,0,0,0,0,0,
0,995,0,0,0,0,0,0,0,0,0,0,0,0,0,0,0,0,0,0,
0,0,0,0,0,0,0,0,0,0,0,0,0,0,0,0,0,0,0,0,
0,0,0,0,0,0,962,0,0,0,0,0,0,0,0,0,0,0,0,0,
0,0,0,0,0,0,0,0,0,0,0,0,0,0,0,0,0,0,0,0,
0,0,0,0,0,0,997,0,997,0,0,0,997,0,0,0,0,0,0,0,
0,0,0,0,0,0,0,0,0,0,0,0,0,0,0,0,0,0,0,0,
0,0,0,0,0,0,0,0,0,0,0,0,0,0,0,0,0,0,0,0,
0,0,0,0,0,0,0,0,0,0,0,0,0,0,0,0,0,0,0,0,
0,0,0,0,0,0,0,0,0,0,0,0,0,0,0,0,0,0,0,0,
0,0,0,0,0,0,0,0,0,0,0,0,0,0,0,0,0,0,0,0,
0,0,0,0,0,0,0,0,0,0,0,0,0,0,0,0,0,0,0,0,
0,961,0,0,0,0,0,0,0,0,0,0,0,0,0,0,0,0,996,0,
0,0,0,0,0,0,0,0,0,0,0,0,0,0,0,0,0,0,0,0,
0,995,0,0,0,0,0,997,0,0,0,0,0,0,0,0,0,0,0,0,
0,0,0,0,0,0,0,0,0,0,997,0,0,0,0,0,0,0,0,0,
0,0,0,0,0,0,0,0,0,0,0,0,0,0,0,0,0,0,0,0,
0,0,0,0,0,0,0,0,0,0,0,0,0,0,0,0,0,0,0,0,
0,0,0,0,0,0,0,962,0,0,0,0,0,0,0,0,0,0,0,0,
0,0,0,0,0,0,0,0,0,0,0,0,0,0,0,0,0,0,0,0,
0,0,961,0,0,0,0,0,0,0,0,0,0,0,0,0,0,0,0,0,
0,0,0,0,0,0,0,0,0,0,0,0,0,0,0,0,0,0,0,0,
0,0,0,0,962,0,0,0,0,0,0,0,0,0,0,0,0,0,996,0,
0,999,0,0,0,0,0,0,0,0,0,0,961,0,0,0,0,0,0,0,
0,0,0,0,0,0,0,0,0,0,0,0,0,0,0,0,0,0,0,0,
0,0,0,0,0,0,0,0,0,0,0,0,0,0,0,0,0,0,0,0,
897,0,0,0,0,0,0,0,0,0,0,0,0,0,0,0,0,0,0,0,
897,0,0,0,0,0,0,0,0,0,0,0,0,0,0,0,0,0,0,0,
897,929,0,0,0,0,0,0,0,0,0,0,0,0,0,0,0,962,1000,0,
0,0,0,0,0,0,0,0,0,0,0,0,0,0,0,0,0,0,0,0,
0,0,0,0,0,0,0,0,0,0,0,0,0,0,0,0,0,0,0,0,
0,0,0,0,0,0,0,0,0,0,0,0,0,0,0,0,0,0,0,0
</data>
 </layer>
</map>
