<?xml version="1.0" encoding="UTF-8"?>
<map version="1.10" tiledversion="1.12.0" orientation="orthogonal" renderorder="right-down" width="120" height="33" tilewidth="16" tileheight="16" infinite="0" nextlayerid="5" nextobjectid="1">
 <editorsettings>
  <export target="../Castlevania/Project1/resources/json/patio.json" format="json"/>
 </editorsettings>
 <tileset firstgid="1" source="CastlevaniaTileset.tsx"/>
 <layer id="1" name="BackGround" width="120" height="33">
  <data encoding="csv">
0,0,401,401,401,401,401,401,155,401,496,497,401,401,401,496,497,401,183,183,496,497,123,123,123,123,123,123,123,123,123,123,25,26,123,123,123,123,123,123,123,123,123,123,123,123,123,123,123,123,123,123,123,123,123,123,123,123,123,123,123,123,123,123,123,123,123,123,123,123,123,123,123,123,123,123,123,123,123,123,123,123,123,123,123,123,123,123,123,123,123,123,123,123,123,123,123,123,183,123,123,123,123,123,123,123,123,123,123,123,123,123,123,123,123,189,189,190,123,313,
0,0,401,401,401,401,401,401,155,401,496,497,401,432,433,496,497,401,401,401,496,497,123,123,123,123,123,123,123,123,123,123,57,58,123,123,185,186,123,123,123,123,123,123,123,123,123,123,123,123,123,123,123,123,123,123,123,123,123,123,123,123,123,123,123,123,123,123,123,123,123,123,123,123,123,123,123,123,123,123,123,123,123,123,123,123,123,123,123,123,123,123,123,123,123,123,123,183,401,401,123,183,123,123,123,123,123,123,123,123,123,123,123,123,123,123,221,222,123,313,
0,0,401,25,26,401,155,401,401,401,496,497,401,464,465,496,497,401,155,401,496,497,123,123,185,186,123,123,123,123,123,123,89,90,123,123,217,218,123,123,123,123,123,123,123,215,216,123,123,123,123,123,123,123,123,123,123,123,123,123,123,123,123,123,123,123,123,123,123,123,123,123,123,123,123,123,123,123,123,123,123,123,123,123,123,123,123,123,123,123,123,123,123,123,123,123,123,401,401,401,183,401,401,123,123,123,123,123,123,123,123,123,123,56,123,56,123,123,123,123,
0,0,401,57,58,401,401,401,401,401,496,497,401,401,401,496,497,401,401,401,496,497,123,123,25,26,123,123,123,123,123,123,121,122,123,123,25,26,123,123,123,123,123,123,123,25,26,123,123,123,123,123,123,123,123,123,123,123,123,123,123,123,123,123,123,123,123,123,123,123,123,123,123,123,123,123,123,123,123,123,123,123,123,123,123,123,123,123,123,123,123,123,123,123,123,185,186,401,156,401,401,401,401,123,123,123,123,123,123,123,123,123,123,88,123,88,123,123,223,313,
0,0,401,401,401,401,401,25,26,401,496,497,401,401,401,496,497,401,432,433,496,497,183,183,57,58,183,123,123,123,123,183,153,154,123,123,57,58,123,123,123,123,123,123,123,57,58,123,123,183,123,123,123,123,123,123,123,123,123,123,123,123,123,123,123,123,123,123,123,123,123,123,185,186,123,123,123,123,123,123,123,123,123,123,183,123,123,123,123,123,123,123,123,123,123,217,218,401,401,401,401,401,401,123,183,123,123,123,123,123,123,123,123,120,123,120,123,123,255,313,
0,0,155,401,401,401,401,57,58,401,496,497,401,155,401,496,497,156,464,465,496,497,401,401,89,90,401,401,401,183,183,401,401,401,123,123,89,90,123,123,123,123,123,123,186,89,90,123,183,401,401,123,123,123,123,123,123,123,123,123,123,56,123,56,123,123,123,123,123,123,123,123,217,218,123,123,123,123,123,123,123,123,123,183,401,401,123,123,123,123,123,123,123,123,123,123,123,401,401,401,401,401,401,401,401,183,185,186,123,123,123,123,183,152,183,152,183,123,287,313,
0,0,401,401,187,188,189,190,401,401,496,497,401,401,401,496,497,156,401,401,496,497,401,401,121,122,401,401,401,401,401,401,156,401,123,123,121,122,123,123,123,123,123,123,218,121,122,401,401,401,401,123,123,123,123,215,216,123,123,123,123,88,123,88,123,123,123,123,123,123,123,123,25,26,123,123,123,123,123,123,123,123,123,401,401,401,123,123,123,123,123,123,123,123,183,183,183,401,156,25,26,401,156,401,401,401,217,218,123,123,501,469,470,469,470,469,470,469,470,502,
0,0,401,401,219,220,221,222,401,401,496,497,25,26,401,496,497,401,401,155,496,497,401,155,153,154,401,401,187,188,189,190,401,401,123,123,153,154,123,123,183,183,123,186,218,153,154,401,401,156,401,123,123,123,123,25,26,123,123,123,123,120,123,120,123,123,123,123,123,123,123,123,57,58,123,123,123,123,123,123,183,123,123,401,401,401,123,183,123,123,123,123,123,123,401,401,401,156,401,57,58,401,154,401,156,401,502,501,502,501,313,470,502,470,469,470,469,502,469,313,
0,0,401,401,220,220,220,221,401,156,496,497,57,58,401,496,497,401,401,401,496,497,401,401,401,401,401,401,219,220,221,222,156,401,123,123,401,401,183,123,401,401,123,218,218,401,401,401,401,401,401,123,123,123,123,57,58,123,123,123,183,152,183,152,183,123,123,123,87,123,123,123,89,90,123,123,123,87,123,183,401,401,123,401,401,401,183,401,401,123,123,87,123,123,154,401,156,156,401,401,401,401,401,469,470,469,470,469,470,500,470,469,470,469,470,469,500,469,470,313,
0,0,401,401,220,220,220,221,401,401,496,497,401,401,401,496,497,187,189,190,496,497,401,401,401,401,401,401,251,252,253,254,401,401,183,183,401,401,401,156,401,401,183,183,183,401,401,156,401,401,401,123,123,123,123,89,90,123,123,123,123,123,123,123,123,123,123,123,119,123,123,123,121,122,123,123,123,119,123,401,156,401,123,401,156,401,401,401,156,123,123,119,123,123,401,401,154,502,502,502,501,501,313,470,502,470,469,470,469,502,469,470,469,470,469,470,469,470,469,313,
0,0,401,401,220,221,220,221,401,401,496,497,401,401,155,496,497,219,221,222,496,497,401,401,25,26,0,0,0,0,0,0,0,0,0,0,0,0,0,0,0,0,0,0,0,0,0,0,0,0,156,123,123,123,123,121,122,123,123,123,123,500,469,502,123,123,123,183,151,183,183,183,153,154,123,183,183,151,183,401,401,156,123,401,401,401,156,401,401,183,183,151,183,502,501,502,502,469,470,469,470,500,470,500,470,469,470,469,470,469,470,469,470,469,470,469,470,469,470,313,
0,0,401,155,220,221,221,221,401,401,496,497,401,401,401,496,497,221,221,221,496,497,401,401,57,58,501,498,499,502,501,501,502,498,499,502,501,502,501,502,498,499,501,501,502,501,498,499,502,502,401,123,123,123,183,153,154,183,123,123,123,469,470,469,123,123,123,123,123,123,123,123,123,123,123,123,123,123,123,123,502,501,502,502,501,501,502,502,501,501,502,502,501,313,469,470,502,470,500,470,502,470,469,470,469,470,469,470,469,470,469,470,469,470,469,470,469,470,469,313,
0,0,401,401,220,220,220,221,401,401,496,497,401,401,401,496,497,221,221,221,496,497,401,401,401,401,401,501,498,499,502,501,501,502,498,499,502,501,502,501,502,498,499,501,501,502,501,498,499,502,401,123,123,123,123,123,123,123,123,123,123,470,500,470,123,123,123,123,123,123,123,469,470,469,502,500,470,469,470,469,470,469,500,469,470,469,470,469,470,469,470,500,470,502,470,469,470,500,470,469,470,469,470,469,470,469,470,469,470,469,470,469,470,469,470,469,470,469,470,469,
0,0,401,401,220,220,220,221,401,401,496,497,401,155,401,496,497,221,221,221,496,497,401,401,155,401,501,501,498,499,501,500,501,501,498,499,502,501,502,500,501,498,499,501,501,502,501,498,499,401,401,123,123,123,470,500,470,500,470,123,123,469,470,469,123,123,123,123,123,123,123,470,469,470,469,470,502,470,469,500,469,470,469,470,502,500,469,470,469,470,502,470,469,470,500,470,469,470,469,470,469,470,469,470,469,470,469,470,469,470,469,470,469,470,469,470,469,470,469,470,
0,0,155,156,220,220,220,221,401,467,0,0,401,401,401,502,502,221,221,221,501,502,401,401,401,502,501,501,501,501,401,401,502,501,502,502,502,501,502,501,501,502,502,501,501,502,123,123,123,123,123,123,123,123,502,470,502,470,469,123,123,470,502,470,123,123,123,123,123,123,123,123,123,469,470,469,470,469,470,469,502,469,470,500,470,469,470,500,470,469,470,469,470,469,470,469,470,469,470,469,470,469,470,469,470,469,470,469,470,469,470,469,470,469,470,469,470,469,470,469,
318,223,401,401,220,221,221,221,467,401,401,401,401,401,401,502,502,221,221,221,501,502,155,401,401,502,469,470,502,470,469,500,469,470,469,470,501,501,502,502,469,470,502,501,501,502,123,502,469,470,123,123,123,123,470,469,470,469,470,123,123,469,470,469,123,123,123,123,123,123,123,123,123,470,469,470,469,470,469,470,469,470,469,470,469,470,502,470,469,470,469,470,469,470,469,470,469,470,469,470,469,470,469,470,469,470,469,470,469,470,469,470,469,470,469,470,469,470,469,470,
350,255,401,401,220,221,221,467,401,401,401,156,401,432,433,502,502,221,221,221,502,502,401,401,401,501,470,500,470,469,470,469,470,469,470,469,502,501,502,501,500,469,470,502,501,500,123,469,470,469,123,123,123,123,469,470,469,470,469,123,123,470,500,470,123,123,123,123,123,123,123,123,123,123,123,469,470,469,470,469,470,469,470,469,470,469,470,469,470,469,470,469,470,469,470,469,470,469,470,469,470,469,470,469,470,469,470,469,470,469,470,469,470,469,470,469,470,469,470,469,
382,287,401,401,220,221,467,221,401,401,401,156,401,464,465,502,502,221,221,221,502,501,432,433,156,501,469,470,469,470,469,470,469,500,469,470,502,500,502,501,469,470,469,501,501,500,123,470,500,470,123,123,123,123,470,500,470,469,470,123,123,502,470,469,123,123,123,123,123,123,123,123,123,123,123,470,469,470,469,470,469,470,469,470,469,470,469,470,469,470,469,470,469,470,469,470,469,470,469,470,469,470,469,470,469,470,469,470,469,470,469,470,469,470,469,470,469,470,469,470,
501,502,501,501,502,501,501,501,502,434,401,401,401,401,401,501,502,221,221,221,502,501,464,465,401,502,470,469,470,502,470,469,470,502,470,469,502,500,502,502,470,469,470,502,501,502,123,469,470,469,123,123,123,123,469,470,502,470,469,123,123,470,469,470,123,123,123,123,123,123,123,123,123,123,123,123,123,469,470,469,470,469,470,469,470,469,470,469,470,469,470,469,470,469,470,469,470,469,470,469,470,469,470,469,470,469,470,469,470,469,470,469,470,469,470,469,470,469,470,469,
502,502,501,502,502,501,501,501,502,401,434,401,156,401,401,501,501,221,221,221,501,502,401,401,401,502,469,500,469,470,469,470,469,470,500,470,502,501,502,501,469,500,469,502,501,502,123,470,469,470,123,789,789,123,470,469,470,469,470,789,123,469,470,469,123,789,789,789,789,789,789,789,789,789,789,123,123,470,469,470,469,470,469,470,469,470,469,470,469,470,469,470,469,470,469,470,469,470,469,470,469,470,469,470,469,470,469,470,469,470,469,470,469,470,469,470,469,470,469,470,
403,403,403,403,403,403,403,403,501,401,401,434,502,501,401,502,502,501,502,501,502,502,501,401,156,502,470,469,470,469,470,469,470,469,470,469,502,502,502,501,470,469,470,501,501,501,501,469,470,502,501,502,502,502,469,470,469,470,501,502,501,470,469,470,502,501,502,501,502,501,501,501,502,502,502,502,501,469,470,469,470,469,470,469,470,469,470,469,470,469,470,469,470,469,470,469,470,469,470,469,470,469,470,469,470,469,470,469,470,469,470,469,470,469,470,469,470,469,470,469,
403,403,403,403,403,403,403,403,502,401,401,500,434,501,501,501,501,401,401,156,498,499,501,500,401,501,469,470,469,470,469,502,469,470,469,470,502,501,502,502,502,470,469,501,502,501,502,470,469,470,502,502,501,502,470,469,470,469,502,501,502,469,470,469,501,501,502,501,502,502,501,501,502,502,501,501,469,470,469,470,469,470,469,470,469,470,469,470,469,470,469,470,469,470,469,470,469,470,469,470,469,470,469,470,469,470,469,470,469,470,469,470,469,470,469,470,469,470,469,470,
403,403,403,403,403,403,403,403,502,401,501,501,502,434,502,501,502,500,401,502,498,499,502,501,401,501,470,469,500,502,470,469,470,469,470,469,501,501,500,501,470,469,470,502,501,501,502,469,470,500,502,501,500,502,469,470,469,470,501,502,501,470,469,470,502,502,501,500,501,502,502,501,502,501,501,501,470,469,470,469,470,469,470,469,470,469,470,469,470,469,470,469,470,469,470,469,470,469,470,469,470,469,470,469,470,469,470,469,470,469,470,469,470,469,470,469,470,469,470,469,
403,403,403,403,403,403,403,403,502,501,502,502,502,502,434,502,502,502,501,501,498,499,501,502,502,501,469,470,469,470,469,470,469,470,469,470,502,501,501,501,469,470,469,502,500,501,501,470,469,470,502,502,502,501,470,469,470,469,501,500,501,469,470,469,501,501,502,502,502,501,502,500,501,502,501,502,469,470,469,470,469,470,469,470,469,470,469,470,469,470,469,470,469,470,469,470,469,470,469,470,469,470,469,470,469,470,469,470,469,470,469,470,469,470,469,470,469,470,469,470,
403,403,403,403,403,403,403,403,502,501,502,502,502,502,501,502,501,501,466,501,502,502,502,501,501,502,502,469,470,469,470,469,500,469,470,502,501,500,500,501,470,500,470,501,501,502,501,469,470,469,502,502,501,501,469,470,469,470,501,501,501,470,469,470,502,501,501,501,501,501,501,502,502,502,502,501,470,469,470,469,470,469,470,469,470,469,470,469,470,469,470,469,470,469,470,469,470,469,470,469,470,469,470,469,470,469,470,469,470,469,470,469,470,469,470,469,470,469,470,469,
403,403,403,403,403,403,403,403,501,502,501,502,501,501,498,499,502,466,502,500,502,498,500,502,500,502,469,470,469,470,469,470,469,470,469,470,502,500,502,502,469,470,502,501,502,500,501,470,469,470,502,501,501,501,470,469,470,469,501,501,501,469,470,469,501,501,501,502,501,501,502,502,501,502,501,500,502,501,469,470,469,470,469,470,469,470,469,470,469,470,469,470,469,470,469,470,469,470,469,470,469,470,469,470,469,470,469,470,469,470,469,470,469,470,469,470,469,470,469,470,
403,403,403,403,403,403,403,403,502,501,500,502,502,502,498,499,466,501,502,502,502,498,499,502,500,501,470,469,500,469,470,469,470,469,470,469,502,500,501,501,470,469,470,502,502,502,501,500,470,502,501,501,501,501,469,470,469,470,501,502,502,470,469,470,501,502,501,502,502,501,501,502,501,502,501,500,502,501,470,469,470,469,470,469,470,469,470,469,470,469,470,469,470,469,470,469,470,469,470,469,470,469,470,469,470,469,470,469,470,469,470,469,470,469,470,469,470,469,470,469,
403,403,403,403,403,403,403,403,502,501,500,501,501,501,498,466,501,502,502,501,500,498,499,502,501,502,469,470,469,470,502,470,469,470,469,470,501,501,501,501,469,470,469,502,502,501,501,470,469,470,502,501,500,502,470,469,470,469,501,502,502,469,470,469,502,501,502,501,502,502,500,500,501,502,502,501,501,502,469,470,469,470,469,470,469,470,469,470,469,470,469,470,469,470,469,470,469,470,469,470,469,470,469,470,469,470,469,470,469,470,469,470,469,470,469,470,469,470,469,470,
403,403,403,403,403,403,403,403,502,502,501,502,501,502,466,499,502,502,502,501,501,498,499,500,502,501,501,502,502,502,501,501,502,501,501,501,501,501,501,502,470,469,470,502,500,501,502,469,470,469,502,500,502,502,469,470,469,470,501,500,501,470,469,470,502,501,500,502,501,500,500,502,501,502,501,501,502,502,470,469,470,469,470,469,470,469,470,469,470,469,470,469,470,469,470,469,470,469,470,469,470,469,470,469,470,469,470,469,470,469,470,469,470,469,470,469,470,469,470,469,
403,403,403,403,403,403,403,403,501,501,502,502,502,466,498,499,501,502,502,502,502,498,499,501,501,501,500,501,502,500,501,498,499,500,502,500,502,501,501,223,469,470,469,501,500,502,502,470,469,470,501,501,501,501,470,469,470,469,502,502,502,469,470,469,502,502,502,501,502,502,501,502,501,502,502,501,501,501,469,470,469,470,469,470,469,470,469,470,469,470,469,470,469,470,469,470,469,470,469,470,469,470,469,470,469,470,469,470,469,470,469,470,469,470,469,470,469,470,469,470,
403,403,403,403,403,403,403,403,502,502,502,502,466,501,498,499,501,501,502,501,501,498,499,501,501,502,502,502,501,501,501,498,499,501,502,501,502,501,501,255,470,469,470,501,501,502,501,469,500,469,502,501,501,502,469,470,469,470,501,500,502,470,469,470,502,501,502,502,502,502,502,502,502,502,500,502,501,469,470,469,470,469,470,469,470,469,470,469,470,469,470,469,470,469,470,469,470,469,470,469,470,469,470,469,470,469,470,469,470,469,470,469,470,469,470,469,470,469,470,469,
403,403,403,403,403,403,403,403,502,501,502,466,502,501,498,499,500,501,502,501,501,498,499,502,502,502,501,501,502,502,500,498,499,501,501,501,502,501,500,287,469,453,454,501,502,502,502,502,469,470,502,501,502,502,470,469,470,469,502,501,502,469,470,469,501,502,502,501,501,500,501,502,501,502,500,501,501,470,469,470,469,470,469,470,469,470,469,470,469,470,469,470,469,470,469,470,469,470,469,470,469,470,469,470,469,470,469,470,469,470,469,470,469,470,469,470,469,470,469,470,
403,403,403,403,403,403,403,403,502,501,502,501,502,502,502,502,502,501,501,501,501,501,502,501,501,502,501,501,501,502,502,501,501,501,502,502,501,502,502,501,501,502,501,501,501,502,502,469,470,502,501,502,502,501,469,470,469,470,501,501,501,470,469,470,501,502,501,501,502,501,501,502,501,502,501,502,501,501,501,469,470,469,470,469,470,469,470,469,470,469,470,469,470,469,470,469,470,469,470,469,470,469,470,469,470,469,470,469,470,469,470,469,470,469,470,469,470,469,470,469
</data>
 </layer>
 <layer id="2" name="ForeGround" width="120" height="33">
  <data encoding="csv">
400,400,0,0,0,0,0,0,0,0,0,0,0,0,0,0,0,0,0,0,0,0,0,0,0,0,0,0,0,0,0,0,0,0,0,0,0,0,0,0,0,0,0,0,0,0,0,0,0,0,0,0,0,0,0,0,0,0,0,0,0,0,0,0,0,0,0,0,0,0,0,0,0,0,0,0,0,0,0,0,0,0,0,0,0,0,0,0,0,0,0,0,0,0,0,0,0,0,0,0,0,0,0,0,0,0,0,0,0,0,0,0,0,0,0,0,0,0,400,0,
400,400,0,0,0,0,0,0,0,0,0,0,0,0,0,0,0,0,0,0,0,0,0,0,0,0,0,0,0,0,0,0,0,0,0,0,0,0,0,0,0,0,0,0,0,0,0,0,0,0,0,0,0,0,0,0,0,0,0,0,0,0,0,0,0,0,0,0,0,0,0,0,0,0,0,0,0,0,0,0,0,0,0,0,0,0,0,0,0,0,0,0,0,0,0,0,0,0,0,0,0,0,0,0,0,0,0,0,0,0,0,0,0,0,0,0,0,0,400,0,
400,400,0,0,0,0,0,0,0,0,0,0,0,0,0,0,0,0,0,0,0,0,0,0,0,0,0,0,0,0,0,0,0,0,0,0,0,0,0,0,0,0,0,0,0,0,0,0,0,0,0,0,0,0,0,0,0,0,0,0,0,0,0,0,0,0,0,0,0,0,0,0,0,0,0,0,0,0,0,0,0,0,0,0,0,0,0,0,0,0,0,0,0,0,0,0,0,0,0,0,0,0,0,0,0,0,0,0,0,0,0,0,0,0,0,0,0,0,400,400,
400,400,0,0,0,0,0,0,0,0,0,0,0,0,0,0,0,0,0,0,0,0,0,0,0,0,0,0,0,0,0,0,0,0,0,0,0,0,0,0,0,0,0,0,0,0,0,0,0,0,0,0,0,0,0,0,0,0,0,0,0,0,0,0,0,0,0,0,0,0,0,0,0,0,0,0,0,0,0,0,0,0,0,0,0,0,0,0,0,0,0,0,0,0,0,0,0,0,0,0,0,0,0,0,0,0,0,400,400,0,0,0,0,0,0,0,0,0,0,0,
400,400,0,0,0,0,0,0,0,0,0,0,0,0,0,0,0,0,0,0,0,0,0,0,0,0,0,0,0,0,0,0,0,0,0,0,0,0,0,0,0,0,0,0,0,0,0,0,0,0,0,0,0,0,0,0,0,0,0,0,0,0,0,0,0,0,0,0,0,0,0,0,0,0,0,0,0,0,0,0,0,0,0,0,0,0,0,0,0,0,0,0,0,0,0,0,0,0,0,0,400,400,400,400,0,0,0,0,0,0,0,0,0,0,0,0,0,0,0,0,
400,400,0,0,0,0,0,0,0,0,0,0,0,0,0,0,0,0,0,0,0,0,0,0,0,0,0,0,0,0,0,0,0,0,0,0,0,0,0,0,0,0,0,0,0,0,0,0,0,0,0,0,0,0,0,0,0,0,0,0,0,0,0,0,0,0,0,0,0,0,0,0,0,0,0,0,0,0,0,0,0,0,0,0,0,0,0,0,0,0,0,0,0,0,400,400,400,0,0,0,0,0,0,0,0,0,0,0,0,0,0,0,0,0,0,0,0,0,0,0,
400,400,0,0,0,0,0,0,0,0,0,0,0,0,0,0,0,0,0,0,0,0,0,0,0,0,0,0,0,0,0,0,0,0,0,0,0,0,0,0,0,0,0,0,0,0,0,0,0,0,0,0,0,0,0,0,0,0,0,0,0,0,0,0,0,0,0,0,0,0,0,0,0,0,0,0,0,0,0,0,0,0,0,0,0,0,0,0,0,0,0,0,0,0,0,0,0,0,0,0,0,0,0,0,0,0,0,0,0,0,400,400,400,400,400,400,400,400,400,400,
400,400,0,0,0,0,0,0,0,0,0,0,0,0,0,0,0,0,0,0,0,0,0,0,0,0,0,0,0,0,0,0,0,0,0,0,0,0,0,0,0,0,0,0,0,0,0,0,0,0,0,0,0,0,0,0,0,0,0,0,0,0,0,0,0,0,0,0,0,0,0,0,0,0,0,0,0,0,0,0,0,0,0,0,0,0,0,0,0,400,400,400,0,0,0,0,0,0,0,0,0,0,0,0,0,0,400,400,400,400,400,0,0,0,0,0,0,0,0,400,
400,400,0,0,0,0,0,0,0,0,0,0,0,0,0,0,0,0,0,0,0,0,0,0,0,0,400,0,0,0,0,0,0,0,0,0,0,0,0,0,0,0,0,0,0,0,0,0,0,400,0,0,0,0,0,0,0,0,0,0,0,0,0,0,0,0,0,0,0,0,0,0,0,0,0,0,0,0,0,0,0,0,0,400,400,400,0,0,0,0,0,0,0,0,0,0,0,0,0,0,0,0,400,400,400,400,400,0,0,0,0,0,0,0,0,0,0,0,0,400,
400,400,0,0,0,0,0,0,0,0,0,0,0,0,0,0,0,0,0,0,0,0,0,0,0,0,400,400,0,0,0,0,0,0,0,0,0,0,0,0,0,0,0,0,0,0,0,0,400,400,400,0,0,0,0,0,0,0,0,0,400,400,400,400,400,0,0,0,0,0,0,0,0,0,0,0,0,0,0,0,0,0,0,0,0,0,0,0,0,0,0,0,0,0,0,0,0,400,400,400,400,400,400,0,0,0,0,0,0,0,0,0,0,0,0,0,0,0,0,400,
400,400,0,0,0,0,0,0,0,0,0,0,0,0,0,0,0,0,0,0,0,0,0,0,0,0,400,400,400,400,400,400,400,400,400,400,400,400,400,400,400,400,400,400,400,400,400,400,400,400,0,0,0,0,0,0,0,0,0,0,400,0,0,0,400,0,0,0,0,0,0,0,0,0,0,0,0,0,0,0,0,0,0,0,0,0,0,0,0,0,0,0,0,400,400,400,400,400,0,0,0,0,0,0,0,0,0,0,0,0,0,0,0,0,0,0,0,0,0,400,
400,400,0,0,0,0,0,0,0,0,0,0,0,0,0,0,0,0,0,0,0,0,0,0,0,0,0,0,0,0,0,0,0,0,0,0,0,400,400,0,0,0,0,0,400,400,0,0,0,0,0,0,0,0,0,0,0,0,0,0,400,0,0,0,400,0,400,400,400,400,400,400,400,400,400,400,400,400,400,400,400,400,400,400,400,400,400,400,400,400,400,400,400,400,0,0,0,0,0,0,0,0,0,0,0,0,0,0,0,0,0,0,0,0,0,0,0,0,0,400,
400,400,0,0,0,0,0,0,0,0,0,0,0,0,0,0,0,0,0,0,0,0,0,0,0,0,0,0,0,0,0,0,0,0,0,0,0,0,0,0,0,0,0,0,0,0,0,0,0,0,0,0,0,400,400,400,400,400,400,0,400,0,0,0,400,0,0,400,400,400,400,0,0,0,0,0,0,0,0,0,0,0,0,0,0,0,0,0,0,0,0,0,0,0,0,0,0,0,0,0,0,0,0,0,0,0,0,0,0,0,0,0,0,0,0,0,0,0,0,400,
400,400,0,0,0,0,0,0,0,0,0,0,0,0,0,0,0,0,0,0,0,0,0,0,0,0,0,0,0,0,0,0,0,0,0,0,0,0,0,0,0,0,0,0,0,0,0,0,0,0,0,0,0,400,0,0,0,0,400,0,400,0,0,0,400,0,0,0,0,400,400,400,400,0,0,0,0,0,0,0,0,0,0,0,0,0,0,0,0,0,0,0,0,0,0,0,0,0,0,0,0,0,0,0,0,0,0,0,0,0,0,0,0,0,0,0,0,0,0,400,
400,400,0,0,0,0,0,0,0,0,400,400,0,0,0,400,400,0,0,0,400,400,0,0,0,400,400,400,400,400,400,400,400,400,400,400,400,0,0,400,400,400,400,400,0,0,400,400,400,400,400,0,0,400,0,0,0,0,400,0,400,0,0,0,400,0,0,0,0,0,0,400,400,0,0,0,0,0,0,0,0,0,0,0,0,0,0,0,0,0,0,0,0,0,0,0,0,0,0,0,0,0,0,0,0,0,0,0,0,0,0,0,0,0,0,0,0,0,0,400,
0,0,0,0,0,0,0,0,0,0,0,0,0,0,0,400,400,0,0,0,400,400,0,0,0,400,0,0,0,0,0,0,0,0,0,0,400,0,0,400,0,0,0,400,0,0,400,0,0,0,400,0,0,400,0,0,0,0,400,0,400,0,0,0,400,0,0,0,0,0,0,0,400,400,400,0,0,0,0,0,0,0,0,0,0,0,0,0,0,0,0,0,0,0,0,0,0,0,0,0,0,0,0,0,0,0,0,0,0,0,0,0,0,0,0,0,0,0,0,400,
0,0,0,0,0,0,0,0,0,0,0,0,0,0,0,400,400,0,0,0,400,400,0,0,0,400,0,0,0,0,0,0,0,0,0,0,400,0,0,400,0,0,0,400,0,0,400,0,0,0,400,0,0,400,0,0,0,0,400,0,400,0,0,0,400,0,0,0,0,0,0,0,0,400,400,400,0,0,0,0,0,0,0,0,0,0,0,0,0,0,0,0,0,0,0,0,0,0,0,0,0,0,0,0,0,0,0,0,0,0,0,0,0,0,0,0,0,0,0,400,
0,0,0,0,0,0,0,0,0,0,0,0,0,0,0,400,400,0,0,0,400,400,0,0,0,400,0,0,0,0,0,0,0,0,0,0,400,0,0,400,0,0,0,400,0,0,400,0,0,0,400,0,0,400,0,0,0,0,400,0,400,0,0,0,400,0,0,0,0,0,0,0,0,0,400,400,400,0,0,0,0,0,0,0,0,0,0,0,0,0,0,0,0,0,0,0,0,0,0,0,0,0,0,0,0,0,0,0,0,0,0,0,0,0,0,0,0,0,0,0,
400,400,400,400,400,400,400,400,400,0,0,0,0,0,0,400,400,0,0,0,0,0,0,0,0,400,0,0,0,0,0,0,0,0,0,0,400,0,0,400,0,0,0,400,0,0,400,0,0,0,400,0,0,400,0,0,0,0,400,0,400,0,0,0,400,0,0,0,0,0,0,0,0,0,0,400,400,0,0,0,0,0,0,0,0,0,0,0,0,0,0,0,0,0,0,0,0,0,0,0,0,0,0,0,0,0,0,0,0,0,0,0,0,0,0,0,0,0,0,0,
400,400,400,400,400,400,400,400,400,0,0,0,0,0,0,400,400,0,0,0,0,0,0,0,0,400,0,0,0,0,0,0,0,0,0,0,400,0,0,400,0,0,0,400,0,0,400,0,0,0,400,0,0,400,0,0,0,0,400,0,400,0,0,0,400,0,0,0,0,0,0,0,0,0,0,400,400,0,0,0,0,0,0,0,0,0,0,0,0,0,0,0,0,0,0,0,0,0,0,0,0,0,0,0,0,0,0,0,0,0,0,0,0,0,0,0,0,0,0,0,
0,0,0,0,0,0,0,0,400,0,0,0,0,0,0,400,400,400,400,400,400,400,0,0,0,400,0,0,0,0,0,0,0,0,0,0,400,0,0,400,0,0,0,400,0,0,400,0,0,0,400,0,0,400,0,0,0,0,400,0,400,0,0,0,400,0,0,0,0,0,0,0,0,0,0,400,400,0,0,0,0,0,0,0,0,0,0,0,0,0,0,0,0,0,0,0,0,0,0,0,0,0,0,0,0,0,0,0,0,0,0,0,0,0,0,0,0,0,0,0,
0,0,0,0,0,0,0,0,400,0,0,0,0,0,0,0,0,0,0,0,0,0,0,0,0,400,0,0,0,0,0,0,0,0,0,0,400,0,0,400,0,0,0,400,0,0,400,0,0,0,400,0,0,400,0,0,0,0,400,0,400,0,0,0,400,0,0,0,0,0,0,0,0,0,0,400,400,0,0,0,0,0,0,0,0,0,0,0,0,0,0,0,0,0,0,0,0,0,0,0,0,0,0,0,0,0,0,0,0,0,0,0,0,0,0,0,0,0,0,0,
0,0,0,0,0,0,0,0,400,0,0,0,0,0,0,0,0,0,0,0,0,0,0,0,0,400,0,0,0,0,0,0,0,0,0,0,400,0,0,400,0,0,0,400,0,0,400,0,0,0,400,0,0,400,0,0,0,0,400,0,400,0,0,0,400,0,0,0,0,0,0,0,0,0,0,400,400,0,0,0,0,0,0,0,0,0,0,0,0,0,0,0,0,0,0,0,0,0,0,0,0,0,0,0,0,0,0,0,0,0,0,0,0,0,0,0,0,0,0,0,
0,0,0,0,0,0,0,0,400,0,0,0,0,0,0,0,0,0,0,0,0,0,0,0,0,400,0,0,0,0,0,0,0,0,0,0,400,0,0,400,0,0,0,400,0,0,400,0,0,0,400,0,0,400,0,0,0,0,400,0,400,0,0,0,400,0,0,0,0,0,0,0,0,0,0,400,400,0,0,0,0,0,0,0,0,0,0,0,0,0,0,0,0,0,0,0,0,0,0,0,0,0,0,0,0,0,0,0,0,0,0,0,0,0,0,0,0,0,0,0,
0,0,0,0,0,0,0,0,400,0,0,0,0,0,400,400,400,400,0,400,400,400,400,400,400,400,0,0,0,0,0,0,0,0,0,0,400,0,0,400,0,0,0,400,0,0,400,0,0,0,400,0,0,400,0,0,0,0,400,0,400,0,0,0,400,0,0,0,0,0,0,0,0,0,0,0,400,0,0,0,0,0,0,0,0,0,0,0,0,0,0,0,0,0,0,0,0,0,0,0,0,0,0,0,0,0,0,0,0,0,0,0,0,0,0,0,0,0,0,0,
0,0,0,0,0,0,0,0,400,0,0,0,0,0,0,0,0,0,0,0,400,0,0,400,0,400,0,0,0,0,0,0,0,0,0,0,400,0,0,400,0,0,0,400,0,0,400,0,0,0,400,0,0,400,0,0,0,0,400,0,400,0,0,0,400,0,0,0,0,0,0,0,0,0,0,0,400,400,0,0,0,0,0,0,0,0,0,0,0,0,0,0,0,0,0,0,0,0,0,0,0,0,0,0,0,0,0,0,0,0,0,0,0,0,0,0,0,0,0,0,
0,0,0,0,0,0,0,0,400,0,0,0,0,0,0,0,0,0,0,0,400,0,0,400,0,400,0,0,0,0,0,0,0,0,0,0,400,0,0,400,0,0,0,400,0,0,400,0,0,0,400,0,0,400,0,0,0,0,400,0,400,0,0,0,400,0,0,0,0,0,0,0,0,0,0,0,400,400,0,0,0,0,0,0,0,0,0,0,0,0,0,0,0,0,0,0,0,0,0,0,0,0,0,0,0,0,0,0,0,0,0,0,0,0,0,0,0,0,0,0,
0,0,0,0,0,0,0,0,400,0,0,0,0,0,0,0,0,0,0,0,0,0,0,400,0,400,0,0,0,0,0,0,0,0,0,0,400,0,0,400,0,0,0,400,0,0,400,0,0,0,400,0,0,400,0,0,0,0,400,0,400,0,0,0,400,0,0,0,0,0,0,0,0,0,0,0,400,400,0,0,0,0,0,0,0,0,0,0,0,0,0,0,0,0,0,0,0,0,0,0,0,0,0,0,0,0,0,0,0,0,0,0,0,0,0,0,0,0,0,0,
0,0,0,0,0,0,0,0,400,0,0,0,0,0,0,0,0,0,0,0,0,0,0,0,0,400,400,400,400,400,400,400,400,400,400,400,400,0,0,400,400,400,400,400,0,0,400,0,0,0,400,0,0,400,0,0,0,0,400,0,400,0,0,0,400,0,0,0,0,0,0,0,0,0,0,0,400,400,0,0,0,0,0,0,0,0,0,0,0,0,0,0,0,0,0,0,0,0,0,0,0,0,0,0,0,0,0,0,0,0,0,0,0,0,0,0,0,0,0,0,
0,0,0,0,0,0,0,0,400,0,0,0,0,0,0,0,0,0,0,0,0,0,0,0,0,0,0,400,0,0,0,0,0,0,400,0,0,0,0,0,454,453,454,400,0,0,400,0,0,0,400,0,0,400,0,0,0,0,400,0,400,0,0,0,400,0,0,0,0,0,0,0,0,0,0,0,400,400,0,0,0,0,0,0,0,0,0,0,0,0,0,0,0,0,0,0,0,0,0,0,0,0,0,0,0,0,0,0,0,0,0,0,0,0,0,0,0,0,0,0,
0,0,0,0,0,0,0,0,400,0,0,0,0,0,0,0,0,0,0,0,0,0,0,0,0,0,0,0,0,0,0,0,0,0,0,0,0,0,0,0,453,454,453,400,0,0,400,0,0,0,400,0,0,400,0,0,0,0,400,0,400,0,0,0,400,0,0,0,0,0,0,0,0,0,0,0,0,400,0,0,0,0,0,0,0,0,0,0,0,0,0,0,0,0,0,0,0,0,0,0,0,0,0,0,0,0,0,0,0,0,0,0,0,0,0,0,0,0,0,0,
0,0,0,0,0,0,0,0,400,0,0,0,0,0,0,0,0,0,0,0,0,0,0,0,0,0,0,0,0,0,0,0,0,0,0,0,0,0,0,0,454,453,454,400,0,0,400,0,0,0,400,0,0,400,0,0,0,0,400,0,400,0,0,0,400,0,0,0,0,0,0,0,0,0,0,0,0,400,400,0,0,0,0,0,0,0,0,0,0,0,0,0,0,0,0,0,0,0,0,0,0,0,0,0,0,0,0,0,0,0,0,0,0,0,0,0,0,0,0,0,
0,0,0,0,0,0,0,0,400,400,400,400,400,400,400,400,400,400,400,400,400,400,400,400,400,400,400,400,400,400,400,400,400,400,400,400,400,400,400,400,400,400,486,400,0,0,400,0,0,0,400,0,0,400,0,0,0,0,400,0,400,0,0,0,400,0,0,0,0,0,0,0,0,0,0,0,0,400,400,0,0,0,0,0,0,0,0,0,0,0,0,0,0,0,0,0,0,0,0,0,0,0,0,0,0,0,0,0,0,0,0,0,0,0,0,0,0,0,0,0
</data>
 </layer>
 <layer id="4" name="Breakables" width="120" height="33" visible="0">
  <data encoding="csv">
0,0,0,0,0,0,0,0,0,0,0,0,0,0,0,0,0,0,0,0,0,0,0,0,0,0,0,0,0,0,0,0,0,0,0,0,0,0,0,0,0,0,0,0,0,0,0,0,0,0,0,0,0,0,0,0,0,0,0,0,0,0,0,0,0,0,0,0,0,0,0,0,0,0,0,0,0,0,0,0,0,0,0,0,0,0,0,0,0,0,0,0,0,0,0,0,0,0,0,0,0,0,0,0,0,0,0,0,0,0,0,0,0,0,0,0,0,0,0,0,
0,0,0,0,0,0,0,0,0,0,0,0,0,0,0,0,0,0,0,0,0,0,0,0,0,0,0,0,0,0,0,0,0,0,0,0,0,0,0,0,0,0,0,0,0,0,0,0,0,0,0,0,0,0,0,0,0,0,0,0,0,0,0,0,0,0,0,0,0,0,0,0,0,0,0,0,0,0,0,0,0,0,0,0,0,0,0,0,0,0,0,0,0,0,0,0,0,0,0,0,0,0,0,0,0,0,0,0,0,0,0,0,0,0,0,0,0,0,0,0,
0,0,0,0,0,0,0,0,0,0,0,0,0,0,0,0,0,0,0,0,0,0,0,0,0,0,0,0,0,0,0,0,0,0,0,0,0,0,0,0,0,0,0,0,0,0,0,0,0,0,0,0,0,0,0,0,0,0,0,0,0,0,0,0,0,0,0,0,0,0,0,0,0,0,0,0,0,0,0,0,0,0,0,0,0,0,0,0,0,0,0,0,0,0,0,0,0,0,0,0,0,0,0,0,0,0,0,0,0,0,0,0,0,0,0,0,0,0,0,0,
0,0,0,0,0,0,0,0,0,0,0,0,0,0,0,0,0,0,0,0,0,0,0,0,0,0,0,0,0,0,0,0,0,0,0,0,0,0,0,0,0,0,0,0,0,0,0,0,0,0,0,0,0,0,0,0,0,0,0,0,0,0,0,0,0,0,0,0,0,0,0,0,0,0,0,0,0,0,0,0,0,0,0,0,0,0,0,0,0,0,0,0,0,0,0,0,0,0,0,0,0,0,0,0,0,0,0,0,0,0,0,0,0,0,0,0,0,0,0,0,
0,0,0,0,0,0,0,0,0,0,0,0,0,0,0,0,0,0,0,0,0,0,0,0,0,0,0,0,0,0,0,0,0,0,0,0,0,0,0,0,0,0,0,0,0,0,0,0,0,0,0,0,0,0,0,0,0,0,0,0,0,0,0,0,0,0,0,0,0,0,0,0,0,0,0,0,0,0,0,0,0,0,0,0,0,0,0,0,0,0,0,0,0,0,0,0,0,0,0,0,0,0,0,0,0,0,0,0,0,0,0,0,0,0,0,0,0,0,0,0,
0,0,0,0,0,0,0,0,0,0,0,0,0,0,0,0,0,0,0,0,0,0,0,0,0,0,0,0,0,0,0,0,0,0,0,0,0,0,0,0,0,0,0,0,0,0,0,0,0,0,0,0,0,0,0,0,0,0,0,0,0,0,0,0,0,0,0,0,0,0,0,0,0,0,0,0,0,0,0,0,0,0,0,0,0,0,0,0,0,0,0,0,0,0,0,0,0,0,0,0,0,0,0,0,0,0,0,0,0,0,0,0,0,0,966,0,0,0,0,0,
0,0,0,0,0,0,0,0,0,0,0,0,0,0,0,0,0,0,0,0,0,0,0,0,0,0,0,0,0,0,0,0,0,0,0,0,0,0,0,0,0,0,0,0,0,0,0,965,0,0,0,0,0,0,0,0,0,0,0,0,0,0,0,0,0,0,0,0,0,0,0,0,0,0,0,0,0,0,0,0,0,0,0,0,0,0,0,0,0,0,0,0,0,0,0,0,0,0,0,0,0,0,0,0,0,0,0,0,966,0,0,0,0,0,0,0,0,0,0,0,
0,0,0,0,0,0,0,0,0,0,0,0,0,0,0,0,0,0,0,0,0,0,0,0,0,0,0,0,0,0,0,0,965,0,0,0,0,0,0,0,0,0,0,0,0,0,0,0,0,0,0,0,0,0,0,0,0,0,0,0,0,0,0,0,0,0,0,0,0,0,0,0,0,0,0,0,0,0,0,0,0,0,0,0,0,0,0,0,0,0,0,0,0,0,0,0,0,0,0,0,0,0,0,0,966,0,0,0,0,0,0,0,0,0,0,0,0,0,0,0,
0,0,0,0,0,0,0,0,0,0,0,0,0,0,0,0,0,0,0,0,0,0,0,0,0,0,0,0,0,0,0,0,0,0,0,0,0,0,0,0,965,0,0,0,0,0,0,0,0,0,0,0,0,0,0,0,0,0,0,0,0,0,0,0,0,0,0,0,0,0,0,0,0,0,0,0,0,0,0,0,0,0,0,0,0,0,0,0,0,0,0,0,0,0,0,0,0,0,0,966,0,0,0,0,0,0,0,0,0,0,0,0,0,0,0,0,0,0,0,0,
0,0,0,0,0,0,0,0,0,0,0,0,0,0,0,0,0,0,0,0,0,0,0,0,0,0,0,0,966,966,966,966,0,0,0,0,0,0,0,0,0,0,0,0,0,0,0,0,0,0,0,0,0,0,0,0,0,0,0,0,0,0,0,0,0,0,0,0,0,0,0,0,0,0,0,0,0,0,0,0,0,0,0,0,0,0,0,0,0,0,0,0,0,0,966,0,0,0,0,0,0,0,0,0,0,0,0,0,0,0,0,0,0,0,0,0,0,0,0,0,
0,0,0,0,0,0,0,0,0,0,0,0,0,0,0,0,0,0,0,0,0,0,0,0,0,0,0,0,0,0,0,0,0,0,0,0,0,0,0,0,0,0,0,0,0,0,0,0,0,0,0,0,0,0,0,0,0,0,0,0,0,0,0,0,0,0,0,0,0,966,0,0,0,0,0,966,0,0,0,0,0,966,0,0,0,0,0,966,0,0,0,0,0,0,0,0,0,0,0,0,0,0,0,0,0,0,0,0,0,0,0,0,0,0,0,0,0,0,0,0,
0,0,0,0,0,0,0,0,0,0,0,965,0,0,0,0,965,0,0,0,0,965,0,0,0,0,0,0,0,0,0,0,0,0,0,0,0,0,0,0,0,0,0,0,0,0,0,0,0,0,0,0,0,0,966,0,0,0,0,0,0,0,0,0,0,0,0,0,0,0,0,0,0,0,0,0,0,0,0,0,0,0,0,0,0,0,0,0,0,0,0,0,0,0,0,0,0,0,0,0,0,0,0,0,0,0,0,0,0,0,0,0,0,0,0,0,0,0,0,0,
0,0,0,0,0,0,0,0,0,0,0,0,0,0,0,0,0,0,0,0,0,0,0,0,0,0,0,0,0,0,0,0,0,0,0,0,0,0,0,0,0,0,0,0,0,0,0,0,0,0,0,0,0,0,0,0,0,0,0,0,0,0,0,0,0,0,0,0,0,0,0,0,0,0,0,0,0,0,0,0,0,0,0,0,0,0,0,0,0,0,0,0,0,0,0,0,0,0,0,0,0,0,0,0,0,0,0,0,0,0,0,0,0,0,0,0,0,0,0,0,
0,0,0,0,0,0,0,0,0,0,0,0,0,0,0,0,0,0,0,0,0,0,0,0,0,0,0,0,0,0,0,0,0,0,0,0,0,0,0,0,0,0,0,0,0,0,0,0,0,0,0,0,0,0,0,0,0,0,0,0,0,0,0,0,0,0,0,0,0,0,0,0,0,0,0,0,0,0,0,0,0,0,0,0,0,0,0,0,0,0,0,0,0,0,0,0,0,0,0,0,0,0,0,0,0,0,0,0,0,0,0,0,0,0,0,0,0,0,0,0,
0,0,0,0,0,0,0,0,0,0,0,0,0,0,0,0,0,0,0,0,0,0,0,0,0,0,0,0,0,0,0,0,0,0,0,0,0,0,0,0,0,0,0,0,0,0,0,0,0,0,0,0,0,0,0,0,0,0,0,0,0,0,0,0,0,0,0,0,0,0,0,0,0,0,0,0,0,0,0,0,0,0,0,0,0,0,0,0,0,0,0,0,0,0,0,0,0,0,0,0,0,0,0,0,0,0,0,0,0,0,0,0,0,0,0,0,0,0,0,0,
0,0,0,0,0,0,0,0,0,0,0,0,0,0,0,0,0,0,0,0,0,0,0,0,0,0,0,0,0,0,0,0,0,0,0,0,0,0,0,0,0,0,0,0,0,0,0,0,0,0,0,0,0,0,0,0,0,0,0,0,0,0,0,0,0,0,0,0,0,0,0,0,0,0,0,0,0,0,0,0,0,0,0,0,0,0,0,0,0,0,0,0,0,0,0,0,0,0,0,0,0,0,0,0,0,0,0,0,0,0,0,0,0,0,0,0,0,0,0,0,
0,0,0,0,0,0,0,0,0,0,0,0,0,0,0,0,0,0,0,0,0,0,0,0,0,0,0,0,0,0,0,0,0,0,0,0,0,0,0,0,0,0,0,0,0,0,0,0,0,0,0,0,0,0,0,0,0,0,0,0,0,0,0,0,0,0,0,0,0,0,0,0,0,0,0,0,0,0,0,0,0,0,0,0,0,0,0,0,0,0,0,0,0,0,0,0,0,0,0,0,0,0,0,0,0,0,0,0,0,0,0,0,0,0,0,0,0,0,0,0,
0,0,0,0,0,0,0,0,0,0,0,0,0,0,0,0,0,0,0,0,0,0,0,0,0,0,0,0,0,0,0,0,0,0,0,0,0,0,0,0,0,0,0,0,0,0,0,0,0,0,0,0,0,0,0,0,0,0,0,0,0,0,0,0,0,0,0,0,0,0,0,0,0,0,0,0,0,0,0,0,0,0,0,0,0,0,0,0,0,0,0,0,0,0,0,0,0,0,0,0,0,0,0,0,0,0,0,0,0,0,0,0,0,0,0,0,0,0,0,0,
0,0,0,0,0,0,0,0,0,0,0,0,0,0,0,0,0,0,0,0,901,901,0,0,0,0,0,0,0,0,0,0,0,0,0,0,0,0,0,0,0,0,0,0,0,0,0,0,0,0,0,0,0,0,0,0,0,0,0,0,0,0,0,0,0,0,0,0,0,0,0,0,0,0,0,0,0,0,0,0,0,0,0,0,0,0,0,0,0,0,0,0,0,0,0,0,0,0,0,0,0,0,0,0,0,0,0,0,0,0,0,0,0,0,0,0,0,0,0,0,
0,0,0,0,0,0,0,0,0,0,0,0,0,0,0,0,0,0,0,0,901,901,0,0,0,0,0,0,0,0,0,0,0,0,0,0,0,0,0,0,0,0,0,0,0,0,0,0,0,0,0,0,0,0,0,0,0,0,0,0,0,0,0,0,0,0,0,0,0,0,0,0,0,0,0,0,0,0,0,0,0,0,0,0,0,0,0,0,0,0,0,0,0,0,0,0,0,0,0,0,0,0,0,0,0,0,0,0,0,0,0,0,0,0,0,0,0,0,0,0,
0,0,0,0,0,0,0,0,0,0,0,0,0,0,0,0,0,0,0,0,0,0,0,0,0,0,0,0,0,0,0,0,0,0,0,0,0,0,0,0,0,0,0,0,0,0,0,0,0,0,0,0,0,0,0,0,0,0,0,0,0,0,0,0,0,0,0,0,0,0,0,0,0,0,0,0,0,0,0,0,0,0,0,0,0,0,0,0,0,0,0,0,0,0,0,0,0,0,0,0,0,0,0,0,0,0,0,0,0,0,0,0,0,0,0,0,0,0,0,0,
0,0,0,0,0,0,0,0,0,0,0,0,0,0,0,0,0,0,0,0,0,0,0,0,0,0,0,0,0,0,0,0,0,0,0,0,0,0,0,0,0,0,0,0,0,0,0,0,0,0,0,0,0,0,0,0,0,0,0,0,0,0,0,0,0,0,0,0,0,0,0,0,0,0,0,0,0,0,0,0,0,0,0,0,0,0,0,0,0,0,0,0,0,0,0,0,0,0,0,0,0,0,0,0,0,0,0,0,0,0,0,0,0,0,0,0,0,0,0,0,
0,0,0,0,0,0,0,0,0,0,0,0,0,0,0,0,0,0,0,0,965,0,0,0,0,0,0,0,0,0,0,0,0,0,0,0,0,0,0,0,0,0,0,0,0,0,0,0,0,0,0,0,0,0,0,0,0,0,0,0,0,0,0,0,0,0,0,0,0,0,0,0,0,0,0,0,0,0,0,0,0,0,0,0,0,0,0,0,0,0,0,0,0,0,0,0,0,0,0,0,0,0,0,0,0,0,0,0,0,0,0,0,0,0,0,0,0,0,0,0,
0,0,0,0,0,0,0,0,0,0,0,0,0,0,0,0,0,0,0,0,0,0,0,0,0,0,0,0,0,0,0,0,0,0,0,0,0,0,0,0,0,0,0,0,0,0,0,0,0,0,0,0,0,0,0,0,0,0,0,0,0,0,0,0,0,0,0,0,0,0,0,0,0,0,0,0,0,0,0,0,0,0,0,0,0,0,0,0,0,0,0,0,0,0,0,0,0,0,0,0,0,0,0,0,0,0,0,0,0,0,0,0,0,0,0,0,0,0,0,0,
0,0,0,0,0,0,0,0,0,0,0,0,0,0,0,0,0,0,0,0,0,0,0,0,0,0,0,0,0,0,0,0,0,0,0,0,0,0,0,0,0,0,0,0,0,0,0,0,0,0,0,0,0,0,0,0,0,0,0,0,0,0,0,0,0,0,0,0,0,0,0,0,0,0,0,0,0,0,0,0,0,0,0,0,0,0,0,0,0,0,0,0,0,0,0,0,0,0,0,0,0,0,0,0,0,0,0,0,0,0,0,0,0,0,0,0,0,0,0,0,
0,0,0,0,0,0,0,0,0,0,0,0,0,0,0,0,0,0,0,0,0,0,0,0,0,0,0,0,0,0,0,0,0,0,0,0,0,0,0,0,0,0,0,0,0,0,0,0,0,0,0,0,0,0,0,0,0,0,0,0,0,0,0,0,0,0,0,0,0,0,0,0,0,0,0,0,0,0,0,0,0,0,0,0,0,0,0,0,0,0,0,0,0,0,0,0,0,0,0,0,0,0,0,0,0,0,0,0,0,0,0,0,0,0,0,0,0,0,0,0,
0,0,0,0,0,0,0,0,0,0,0,0,0,0,0,0,0,0,0,0,0,0,0,0,0,0,0,0,0,0,0,0,0,0,0,0,0,0,0,0,0,0,0,0,0,0,0,0,0,0,0,0,0,0,0,0,0,0,0,0,0,0,0,0,0,0,0,0,0,0,0,0,0,0,0,0,0,0,0,0,0,0,0,0,0,0,0,0,0,0,0,0,0,0,0,0,0,0,0,0,0,0,0,0,0,0,0,0,0,0,0,0,0,0,0,0,0,0,0,0,
0,0,0,0,0,0,0,0,0,0,0,0,0,0,0,0,0,0,0,0,0,0,0,0,0,0,0,0,0,0,0,0,0,0,0,0,0,0,0,0,0,0,0,0,0,0,0,0,0,0,0,0,0,0,0,0,0,0,0,0,0,0,0,0,0,0,0,0,0,0,0,0,0,0,0,0,0,0,0,0,0,0,0,0,0,0,0,0,0,0,0,0,0,0,0,0,0,0,0,0,0,0,0,0,0,0,0,0,0,0,0,0,0,0,0,0,0,0,0,0,
0,0,0,0,0,0,0,0,0,0,0,0,0,0,0,0,0,0,0,0,0,0,0,0,0,0,0,0,0,0,0,0,0,0,0,0,0,0,0,0,0,0,0,0,0,0,0,0,0,0,0,0,0,0,0,0,0,0,0,0,0,0,0,0,0,0,0,0,0,0,0,0,0,0,0,0,0,0,0,0,0,0,0,0,0,0,0,0,0,0,0,0,0,0,0,0,0,0,0,0,0,0,0,0,0,0,0,0,0,0,0,0,0,0,0,0,0,0,0,0,
0,0,0,0,0,0,0,0,0,0,0,0,0,0,0,0,965,0,0,0,0,0,965,0,0,0,0,0,0,0,0,0,0,0,0,0,0,0,0,0,0,0,0,0,0,0,0,0,0,0,0,0,0,0,0,0,0,0,0,0,0,0,0,0,0,0,0,0,0,0,0,0,0,0,0,0,0,0,0,0,0,0,0,0,0,0,0,0,0,0,0,0,0,0,0,0,0,0,0,0,0,0,0,0,0,0,0,0,0,0,0,0,0,0,0,0,0,0,0,0,
0,0,0,0,0,0,0,0,0,0,0,0,0,0,0,0,0,0,0,0,0,0,0,0,0,0,0,0,0,0,965,0,0,0,0,0,0,965,0,0,0,0,0,0,0,0,0,0,0,0,0,0,0,0,0,0,0,0,0,0,0,0,0,0,0,0,0,0,0,0,0,0,0,0,0,0,0,0,0,0,0,0,0,0,0,0,0,0,0,0,0,0,0,0,0,0,0,0,0,0,0,0,0,0,0,0,0,0,0,0,0,0,0,0,0,0,0,0,0,0,
0,0,0,0,0,0,0,0,0,0,0,0,0,0,0,0,0,0,0,0,0,0,0,0,0,0,0,0,0,0,905,0,0,0,0,0,0,0,0,0,0,0,0,0,0,0,0,0,0,0,0,0,0,0,0,0,0,0,0,0,0,0,0,0,0,0,0,0,0,0,0,0,0,0,0,0,0,0,0,0,0,0,0,0,0,0,0,0,0,0,0,0,0,0,0,0,0,0,0,0,0,0,0,0,0,0,0,0,0,0,0,0,0,0,0,0,0,0,0,0,
0,0,0,0,0,0,0,0,0,0,0,0,0,0,0,0,0,0,0,0,0,0,0,0,0,0,0,0,0,0,0,0,0,0,0,0,0,0,0,0,0,0,0,0,0,0,0,0,0,0,0,0,0,0,0,0,0,0,0,0,0,0,0,0,0,0,0,0,0,0,0,0,0,0,0,0,0,0,0,0,0,0,0,0,0,0,0,0,0,0,0,0,0,0,0,0,0,0,0,0,0,0,0,0,0,0,0,0,0,0,0,0,0,0,0,0,0,0,0,0
</data>
 </layer>
 <layer id="3" name="Levels" width="120" height="33">
  <data encoding="csv">
0,0,0,0,0,0,0,0,0,0,0,0,0,0,0,0,0,0,0,0,0,0,0,0,0,0,0,0,0,0,0,0,0,0,0,0,0,0,0,0,0,0,0,0,0,0,0,0,0,0,0,0,0,0,0,0,0,0,0,0,0,0,0,0,0,0,0,0,0,0,0,0,0,0,0,0,0,0,0,0,0,0,0,0,0,0,0,0,0,0,0,0,0,0,0,0,0,0,0,0,0,0,0,0,0,0,0,0,0,0,0,0,0,0,0,0,0,0,0,0,
0,0,0,0,0,0,0,0,0,0,0,0,0,0,0,0,0,0,0,0,0,0,0,0,0,0,0,0,0,0,0,0,0,0,0,0,0,0,0,0,0,0,0,0,0,0,0,0,0,0,0,0,0,0,0,0,0,0,0,0,0,0,0,0,0,0,0,0,0,0,0,0,0,0,0,0,0,0,0,0,0,0,0,0,0,0,0,0,0,0,0,0,0,0,0,0,0,0,0,0,0,0,0,0,0,0,0,0,0,0,0,0,0,0,0,0,0,0,0,0,
0,0,0,0,0,0,0,0,0,0,0,0,0,0,0,0,0,0,0,0,0,0,0,0,0,0,0,0,0,0,0,0,0,0,0,0,0,0,0,0,0,0,0,0,0,0,0,0,0,0,0,0,0,0,0,0,0,0,0,0,0,0,0,0,0,0,0,0,0,0,0,0,0,0,0,0,0,0,0,0,0,0,0,0,0,0,0,0,0,0,0,0,0,0,0,0,0,0,0,0,0,0,0,0,0,0,0,0,0,0,0,0,0,0,0,0,0,0,0,0,
0,0,0,0,0,0,0,0,0,0,0,0,0,0,0,0,0,0,0,0,0,0,0,0,0,0,0,0,0,0,0,0,0,0,0,0,0,0,0,0,0,0,0,0,0,0,0,0,0,0,0,0,0,0,0,0,0,0,0,0,0,0,0,0,0,0,0,0,0,0,0,0,0,0,0,0,0,0,0,0,0,0,0,0,0,0,0,0,0,0,0,0,0,0,0,0,0,0,0,0,0,0,998,0,0,0,0,0,0,0,0,0,0,0,0,0,0,0,899,0,
0,0,0,0,0,0,0,0,0,0,0,0,0,0,0,0,0,0,0,0,0,0,0,0,0,0,0,0,0,0,0,0,0,0,0,0,0,0,0,0,0,0,0,0,0,0,0,0,0,0,0,0,0,0,0,0,0,0,0,0,0,0,0,0,0,0,0,0,0,0,0,0,0,0,0,0,0,0,0,0,0,0,0,0,0,0,0,0,0,0,0,0,0,0,0,0,0,0,0,0,0,0,0,0,0,0,0,0,0,0,0,0,0,0,0,0,0,0,899,0,
0,0,0,0,0,0,0,0,0,0,0,0,0,0,0,0,0,0,0,0,0,0,0,0,0,0,0,0,0,0,0,0,0,0,0,0,0,0,0,0,0,0,0,0,0,0,0,0,0,0,0,0,0,0,0,0,0,0,0,0,0,0,0,0,0,0,0,0,0,0,0,0,0,0,0,0,0,0,0,0,0,0,0,0,0,0,0,0,0,0,0,0,0,0,0,0,0,0,0,0,0,0,0,0,0,0,0,0,0,0,0,0,0,0,0,0,0,931,899,0,
0,0,0,0,0,0,0,0,0,0,0,0,0,0,0,0,0,0,0,0,0,0,0,0,0,0,0,0,0,0,0,0,0,0,0,0,0,0,0,0,0,0,0,0,0,0,0,0,0,0,0,0,0,0,0,0,0,0,0,0,0,0,0,0,0,0,0,0,0,0,0,0,0,0,0,0,0,0,0,0,0,0,0,0,0,0,0,0,0,0,998,0,0,0,0,0,0,0,0,0,0,0,0,0,0,0,1002,0,0,0,0,0,0,0,0,0,0,0,0,0,
0,0,0,0,0,0,0,0,0,0,0,0,0,0,0,0,0,0,0,0,0,0,0,0,0,0,0,0,0,0,0,0,0,0,0,0,0,0,0,0,0,0,0,0,0,0,0,0,0,0,0,0,0,0,0,0,0,0,0,0,0,0,0,0,0,0,0,0,0,0,0,0,0,0,0,0,0,0,0,0,0,0,0,0,998,0,0,0,0,0,0,0,0,0,0,0,0,0,0,0,0,0,0,0,0,0,0,0,0,0,0,0,0,0,0,0,0,0,0,0,
0,0,0,0,0,0,0,0,0,0,0,0,0,0,0,0,0,0,0,0,0,0,0,0,0,0,0,0,0,0,0,0,0,0,0,0,0,0,0,0,0,0,0,0,0,0,0,0,0,0,0,0,0,0,0,0,0,0,0,0,0,0,933,0,0,0,0,0,0,0,0,0,0,0,0,0,0,0,0,0,0,0,0,0,0,0,0,0,0,0,0,0,0,0,0,0,0,1002,0,0,0,0,0,0,0,0,0,0,0,0,0,0,0,0,0,0,0,0,0,0,
0,0,0,0,0,0,0,0,0,0,0,0,0,0,0,0,0,0,0,0,0,0,0,0,0,0,0,0,0,0,0,0,0,0,0,0,0,0,0,0,0,0,0,0,0,0,0,0,0,0,0,0,0,0,0,0,0,0,0,0,0,0,0,0,0,0,0,0,0,0,0,0,0,0,0,0,0,0,0,0,0,0,0,0,0,0,0,0,0,0,0,0,0,0,0,0,0,0,0,0,0,0,0,0,0,0,0,0,0,0,0,0,0,0,0,0,0,0,0,0,
0,0,0,0,0,0,0,0,0,0,0,0,0,0,0,0,0,0,0,0,0,0,0,0,0,0,0,0,0,0,0,0,0,0,0,0,0,0,0,0,0,0,0,0,0,0,0,0,0,0,0,0,0,0,0,0,0,0,0,0,0,0,0,0,0,0,0,0,0,0,0,1002,0,0,0,0,0,0,1002,0,0,0,0,0,0,0,0,0,0,1002,0,0,0,0,0,0,0,0,0,0,0,0,0,0,0,0,0,0,0,0,0,0,0,0,0,0,0,0,0,0,
0,0,0,0,0,0,0,0,0,0,0,0,0,0,0,0,0,0,0,0,0,0,0,0,0,0,0,0,0,0,0,0,0,0,0,0,0,0,0,0,0,0,0,0,0,0,0,0,0,0,0,0,0,0,0,0,1002,0,0,0,0,0,0,0,0,0,0,0,0,0,0,0,0,0,0,0,0,0,0,0,0,0,0,0,0,0,0,0,0,0,0,0,0,0,0,0,0,0,0,0,0,0,0,0,0,0,0,0,0,0,0,0,0,0,0,0,0,0,0,0,
0,0,0,0,0,0,0,0,0,0,0,0,0,0,0,0,0,0,0,0,0,0,0,0,0,0,0,0,0,0,0,0,0,0,0,0,0,0,0,0,0,0,0,0,0,0,0,0,0,0,0,0,0,0,0,0,0,0,0,0,0,0,0,0,0,0,0,0,0,0,0,0,0,0,0,0,0,0,0,0,0,0,0,0,0,0,0,0,0,0,0,0,0,0,0,0,0,0,0,0,0,0,0,0,0,0,0,0,0,0,0,0,0,0,0,0,0,0,0,0,
0,0,0,0,0,0,0,0,0,0,963,0,0,0,0,0,0,0,0,0,0,0,0,0,0,0,0,0,0,1002,0,0,0,1002,0,0,0,0,0,0,0,1002,0,0,0,0,0,1002,0,0,0,0,0,0,0,0,0,0,0,0,0,0,0,0,0,0,0,0,0,0,0,0,0,0,0,0,0,0,0,0,0,0,0,0,0,0,0,0,0,0,0,0,0,0,0,0,0,0,0,0,0,0,0,0,0,0,0,0,0,0,0,0,0,0,0,0,0,0,0,0,
0,0,0,0,0,0,0,0,0,0,0,0,0,0,0,0,0,0,0,0,0,0,0,0,0,0,0,0,0,0,0,0,0,0,0,0,0,0,0,0,0,0,0,0,0,0,0,0,0,0,0,0,0,0,0,0,0,0,0,0,0,0,0,0,0,0,0,0,0,0,0,0,0,0,0,0,0,0,0,0,0,0,0,0,0,0,0,0,0,0,0,0,0,0,0,0,0,0,0,0,0,0,0,0,0,0,0,0,0,0,0,0,0,0,0,0,0,0,0,0,
897,0,0,0,0,0,0,0,0,0,0,0,0,0,0,0,0,0,0,0,0,0,0,0,0,0,0,0,0,0,0,0,0,0,0,0,0,0,0,0,0,0,0,0,0,0,0,0,0,0,0,0,0,0,0,0,0,0,0,0,0,0,0,0,0,0,0,0,0,0,0,0,0,0,0,0,0,0,0,0,0,0,0,0,0,0,0,0,0,0,0,0,0,0,0,0,0,0,0,0,0,0,0,0,0,0,0,0,0,0,0,0,0,0,0,0,0,0,0,0,
897,0,0,0,0,0,0,0,0,0,0,0,0,0,0,0,0,0,0,0,0,0,0,0,0,0,0,0,0,0,0,0,0,0,0,0,0,0,0,0,0,0,0,0,0,0,0,0,0,0,0,0,0,0,0,0,0,0,0,0,0,0,0,0,0,0,0,0,0,0,0,0,0,0,0,0,0,0,0,0,0,0,0,0,0,0,0,0,0,0,0,0,0,0,0,0,0,0,0,0,0,0,0,0,0,0,0,0,0,0,0,0,0,0,0,0,0,0,0,0,
897,0,929,0,0,0,964,0,961,0,0,0,0,0,0,0,0,0,0,0,0,0,0,0,0,0,0,0,0,0,0,0,0,0,0,0,0,0,0,0,0,0,0,0,0,0,0,0,0,0,0,0,0,0,0,0,0,0,0,0,0,0,0,0,0,0,0,0,0,0,0,0,0,0,0,0,0,0,0,0,0,0,0,0,0,0,0,0,0,0,0,0,0,0,0,0,0,0,0,0,0,0,0,0,0,0,0,0,0,0,0,0,0,0,0,0,0,0,0,0,
0,0,0,0,0,0,0,0,0,0,0,0,0,0,0,0,0,0,0,0,0,0,0,0,0,0,0,0,0,0,0,0,0,0,0,0,0,0,0,0,0,0,0,0,0,0,0,0,0,0,0,0,0,0,0,0,0,0,0,0,0,0,0,0,0,0,0,0,0,0,0,0,0,0,0,0,0,0,0,0,0,0,0,0,0,0,0,0,0,0,0,0,0,0,0,0,0,0,0,0,0,0,0,0,0,0,0,0,0,0,0,0,0,0,0,0,0,0,0,0,
0,0,0,0,0,0,0,0,0,0,0,0,0,0,0,0,0,0,0,0,0,0,0,0,0,0,0,0,0,0,0,0,0,0,0,0,0,0,0,0,0,0,0,0,0,0,0,0,0,0,0,0,0,0,0,0,0,0,0,0,0,0,0,0,0,0,0,0,0,0,0,0,0,0,0,0,0,0,0,0,0,0,0,0,0,0,0,0,0,0,0,0,0,0,0,0,0,0,0,0,0,0,0,0,0,0,0,0,0,0,0,0,0,0,0,0,0,0,0,0,
0,0,0,0,0,0,0,0,0,0,0,0,0,0,0,0,0,0,0,0,0,0,0,0,0,0,0,0,0,0,0,0,0,0,0,0,0,0,0,0,0,0,0,0,0,0,0,0,0,0,0,0,0,0,0,0,0,0,0,0,0,0,0,0,0,0,0,0,0,0,0,0,0,0,0,0,0,0,0,0,0,0,0,0,0,0,0,0,0,0,0,0,0,0,0,0,0,0,0,0,0,0,0,0,0,0,0,0,0,0,0,0,0,0,0,0,0,0,0,0,
0,0,0,0,0,0,0,0,0,0,0,0,0,0,0,0,0,0,0,0,0,0,0,0,0,0,0,0,0,0,0,0,0,0,0,0,0,0,0,0,0,0,0,0,0,0,0,0,0,0,0,0,0,0,0,0,0,0,0,0,0,0,0,0,0,0,0,0,0,0,0,0,0,0,0,0,0,0,0,0,0,0,0,0,0,0,0,0,0,0,0,0,0,0,0,0,0,0,0,0,0,0,0,0,0,0,0,0,0,0,0,0,0,0,0,0,0,0,0,0,
0,0,0,0,0,0,0,0,0,0,0,0,0,0,0,0,0,0,0,0,0,0,0,0,0,0,0,0,0,0,0,0,0,0,0,0,0,0,0,0,0,0,0,0,0,0,0,0,0,0,0,0,0,0,0,0,0,0,0,0,0,0,0,0,0,0,0,0,0,0,0,0,0,0,0,0,0,0,0,0,0,0,0,0,0,0,0,0,0,0,0,0,0,0,0,0,0,0,0,0,0,0,0,0,0,0,0,0,0,0,0,0,0,0,0,0,0,0,0,0,
0,0,0,0,0,0,0,0,0,0,0,0,0,0,962,0,0,0,0,963,0,0,0,0,0,0,0,0,0,0,0,0,0,0,0,0,0,0,0,0,0,0,0,0,0,0,0,0,0,0,0,0,0,0,0,0,0,0,0,0,0,0,0,0,0,0,0,0,0,0,0,0,0,0,0,0,0,0,0,0,0,0,0,0,0,0,0,0,0,0,0,0,0,0,0,0,0,0,0,0,0,0,0,0,0,0,0,0,0,0,0,0,0,0,0,0,0,0,0,0,
0,0,0,0,0,0,0,0,0,0,0,0,0,0,0,0,0,0,0,0,0,0,0,0,0,0,0,0,0,0,0,0,0,0,0,0,0,0,0,0,0,0,0,0,0,0,0,0,0,0,0,0,0,0,0,0,0,0,0,0,0,0,0,0,0,0,0,0,0,0,0,0,0,0,0,0,0,0,0,0,0,0,0,0,0,0,0,0,0,0,0,0,0,0,0,0,0,0,0,0,0,0,0,0,0,0,0,0,0,0,0,0,0,0,0,0,0,0,0,0,
0,0,0,0,0,0,0,0,0,0,0,0,0,0,0,0,0,0,0,0,0,0,0,0,0,0,0,0,0,0,0,0,0,0,0,0,0,0,0,0,0,0,0,0,0,0,0,0,0,0,0,0,0,0,0,0,0,0,0,0,0,0,0,0,0,0,0,0,0,0,0,0,0,0,0,0,0,0,0,0,0,0,0,0,0,0,0,0,0,0,0,0,0,0,0,0,0,0,0,0,0,0,0,0,0,0,0,0,0,0,0,0,0,0,0,0,0,0,0,0,
0,0,0,0,0,0,0,0,0,0,0,0,0,0,0,0,0,0,0,0,0,0,0,0,0,0,0,0,0,0,0,0,0,0,0,0,0,0,0,0,0,0,0,0,0,0,0,0,0,0,0,0,0,0,0,0,0,0,0,0,0,0,0,0,0,0,0,0,0,0,0,0,0,0,0,0,0,0,0,0,0,0,0,0,0,0,0,0,0,0,0,0,0,0,0,0,0,0,0,0,0,0,0,0,0,0,0,0,0,0,0,0,0,0,0,0,0,0,0,0,
0,0,0,0,0,0,0,0,0,0,0,0,0,0,0,0,0,0,0,0,0,0,0,0,0,0,0,0,0,0,0,0,0,0,0,0,0,0,0,0,0,0,0,0,0,0,0,0,0,0,0,0,0,0,0,0,0,0,0,0,0,0,0,0,0,0,0,0,0,0,0,0,0,0,0,0,0,0,0,0,0,0,0,0,0,0,0,0,0,0,0,0,0,0,0,0,0,0,0,0,0,0,0,0,0,0,0,0,0,0,0,0,0,0,0,0,0,0,0,0,
0,0,0,0,0,0,0,0,0,993,0,0,0,0,0,0,0,0,0,0,0,0,0,0,0,0,0,0,0,0,0,0,0,0,0,0,0,0,0,0,0,0,0,0,0,0,0,0,0,0,0,0,0,0,0,0,0,0,0,0,0,0,0,0,0,0,0,0,0,0,0,0,0,0,0,0,0,0,0,0,0,0,0,0,0,0,0,0,0,0,0,0,0,0,0,0,0,0,0,0,0,0,0,0,0,0,0,0,0,0,0,0,0,0,0,0,0,0,0,0,
0,0,0,0,0,0,0,0,0,0,0,0,0,0,0,0,0,0,0,0,0,0,0,0,0,0,0,0,0,0,0,0,0,0,0,0,0,0,0,898,0,0,0,0,0,0,0,0,0,0,0,0,0,0,0,0,0,0,0,0,0,0,0,0,0,0,0,0,0,0,0,0,0,0,0,0,0,0,0,0,0,0,0,0,0,0,0,0,0,0,0,0,0,0,0,0,0,0,0,0,0,0,0,0,0,0,0,0,0,0,0,0,0,0,0,0,0,0,0,0,
0,0,0,0,0,0,0,0,0,0,0,0,0,0,0,0,0,0,0,0,0,0,0,0,0,0,0,0,0,0,0,0,0,0,0,0,0,0,0,898,0,0,0,0,0,0,0,0,0,0,0,0,0,0,0,0,0,0,0,0,0,0,0,0,0,0,0,0,0,0,0,0,0,0,0,0,0,0,0,0,0,0,0,0,0,0,0,0,0,0,0,0,0,0,0,0,0,0,0,0,0,0,0,0,0,0,0,0,0,0,0,0,0,0,0,0,0,0,0,0,
0,0,0,0,0,0,0,0,0,0,0,964,0,0,0,0,0,0,0,0,0,0,0,0,0,0,0,0,0,0,0,0,0,0,0,0,0,994,930,898,0,0,0,0,0,0,0,0,0,0,0,0,0,0,0,0,0,0,0,0,0,0,0,0,0,0,0,0,0,0,0,0,0,0,0,0,0,0,0,0,0,0,0,0,0,0,0,0,0,0,0,0,0,0,0,0,0,0,0,0,0,0,0,0,0,0,0,0,0,0,0,0,0,0,0,0,0,0,0,0,
0,0,0,0,0,0,0,0,0,0,0,0,0,0,0,0,0,0,0,0,0,0,0,0,0,0,0,0,0,0,0,0,0,0,0,0,0,0,0,0,0,0,0,0,0,0,0,0,0,0,0,0,0,0,0,0,0,0,0,0,0,0,0,0,0,0,0,0,0,0,0,0,0,0,0,0,0,0,0,0,0,0,0,0,0,0,0,0,0,0,0,0,0,0,0,0,0,0,0,0,0,0,0,0,0,0,0,0,0,0,0,0,0,0,0,0,0,0,0,0
</data>
 </layer>
</map>
